!!!!SEGMENT: 047-1a-Sm.krn
!!!COM: Chopin, Fryderyk
!!!OTL: 3ᵉ. Ballade
!!!OPS: Op. 47
!!!PTL: 3E. BALLADE | POUR | le Piano.
!!!PPR: M. Schlesinger
!!!PPP: Paris
!!!AGN: Ballade
!!!NIFC-rismID: 1001068324
!!!NIFC-shelfmark: PL-Wbfc 6617
!!!OMD: Allegretto.
**kern	**fing	**kern	**dynam
*part1	*	*part1	*part1
*staff2	*	*staff1	*
*	*	*I"PIANO.	*
*clefF4	*	*clefG2	*
*k[b-e-a-d-]	*	*k[b-e-a-d-]	*
*A-:	*	*A-:	*
*M6/8	*	*M6/8	*
=1	=1	=1	=1
!	!	!LO:TX:b:t=m. v.	!
4.ryy	.	(>4e-	.
.	.	8f 8dn	.
8d-X>L	.	8g 8e-L	.
8c	.	8a- 8e-	.
8GJ	.	8b- 8e-J)	.
=2	=2	=2	=2
4A-	.	4cc 4e-\	.
8dn 8Bn 8E-	.	(>8ff 8a- 8f	.
4.c 4.E-	.	[>4.ee- 4.a- 4.e-\)	.
=3	=3	=3	=3
*	*	*^	*
(>8d-XL	.	2.ee-_>	4.g 4.e-	.
8c	.	.	.	.
8B-J	.	.	.	.
8qc/	.	.	.	.
8B-L	.	.	4.dd- 4.g 4.e-	.
8An	.	.	.	.
8B-J	.	.	.	.
*	*	*v	*v	*
=4	=4	=4	=4
8cL	.	2.ee-] 2.cc 2.a- 2.e-	.
8.A-	.	.	.
16E-Jk	.	.	.
4.E-)	.	.	.
=5	=5	=5	=5
*^	*	*^	*
4G	(>4EE-	.	4ryy	(>4d-\	.
!	!	!	!LO:TX:a:t=P:problem:ligatura przy 2e- nie ma początku	!	!
8A-	8FF	.	[>2e-	2ryy	.
8B-L	8GGL	.	.	.	.
8c	8AA-	.	.	.	.
8GJ	8BB-J	.	.	.	.
*v	*v	*	*	*	*
*	*	*v	*v	*
!!LO:LB:g=original
=6	=6	=6	=6
!LO:TX:a:t=P:problem:łuk od 4EE- do 4C nie ma końca w źródle	!	!	!
(>4C)\	.	4e-] 4A-	.
8F	.	8dn 8Bn 8A-	.
[>4.E-)	.	[>4.e- [>4.c [<4.A-)	.
=7	=7	=7	=7
4.E-_>	.	(>8e-L] 8c] 8A-]	.
.	.	8a- 8e- 8c	<
.	.	8b-J 8e- 8d-	.
4E-]	.	4cc 4a- 4e-	.
(>8EE-	.	8b- 8e- 8d-	[[
=8	=8	=8	=8
4AA-	.	4cc 4a- 4e-	>
8E-	.	8a- 8e- 8c	.
4A-)	.	4a- 4e- 4c)	]]
8r	.	8r	.
*ped	*	*	*
=9	=9	=9	=9
8AA- 8AAA-	.	4.aaa- 4.aa-	f >
8r	.	.	]]
*clefG2	*	*	*
(>8ee- 8a- 8g-X	.	.	.
4ddn 4a- 4f)\	.	4r	.
*Xped	*	*	*
.	.	.	.
8r	.	8r	.
*clefF4	*	*	*
!!LO:LB:g=original
=10	=10	=10	=10
*ped	*	*	*
!LO:TX:b:t=P:problem:znak pedalizacji przed nutą	!	!	!
8AA-'< 8AAA-'<	.	4.aa- 4.a-	>
8r	.	.	]
(>8d- 8A- 8F-X	.	.	.
8c 8A- 8E-)	.	8r	.
*Xped	*	*	*
4r	.	16r	.
.	.	(>16ccKL 16c\	<
*ped	*	*	*
.	.	8ffJ 8f)	[
=11	=11	=11	=11
8EE- 8EEE-	.	8r	p
8r	.	16r	.
.	.	(>16ee-KL 16e-\	.
(>8cL 8E-	.	8ee-J 8e-)	.
*Xped	*	*	*
8BnJ 8F 8Dn)	.	8r	.
4r	.	16r	.
.	.	(>16ee-KL 16e-\	.
.	.	8ee-J 8e-)	.
*ped	*	*	*
=12	=12	=12	=12
8EE-'>L\	.	8r	.
8r	.	16r	.
.	.	(>16ee-KL 16e-\	.
(>8BnJ 8F 8Dn	.	8ee-J 8e-)	.
*Xped	*	*	*
.	.	.	.
4B-X 4G 4D-X)	.	8r	.
.	.	16r	.
.	.	(>16ee-KL 16e-\	.
8r	.	8ee-J 8e-)	.
*ped	*	*	*
=13	=13	=13	=13
8AA- 8AAA-	.	4.aaa- 4.aa-	f >
16r	.	.	]]
*clefG2	*	*	*
(>16ee-KL 16a- 16g-X	.	.	.
8ee-J 8a- 8g-	.	.	.
*Xped	*	*	*
.	.	.	.
4ddn 4a- 4f)\	.	4r	.
8r	.	8r	.
*clefF4	*	*	*
!!LO:LB:g=original
=14	=14	=14	=14
*ped	*	*	*
!LO:TX:b:t=P:problem:znak pedalizacji przed nutą	!	!	!
8AA- 8AAA-	.	4.aa- 4.a-	>
16r	.	.	]
(>16d-KL 16A- 16F-X	.	.	.
8d-J 8A- 8F-	.	.	.
*Xped	*	*	*
!	!	!LO:TX:a:t=P:note-head-side tuplet number:problem	!
!	!	!LO:TX:a:t=P:tuplet number 8:problem	!
!	!	!LO:N:vis=20	!
8c 8A- 8E-)	.	40r	.
.	.	(>20ccL 20c\	.
.	.	.	<
.	.	20dd- 20d-	.
4r	.	20ddn 20dn	.
.	.	20ee- 20e-	.
.	.	20een 20en	.
.	.	20gg 20g	.
!	!	!LO:N:vis=20	!
.	.	40r	.
.	.	40ffJk 40f)	[[
*ped	*	*	*
=15	=15	=15	=15
4EE-'< 4EEE-'<	.	(>8.ffL 8.f\	.
.	.	16ee-k 16e-	.
16r	.	8ee-J 8e-)	.
(>16cKL 16E-	.	.	.
*Xped	*	*	*
8BnJ 8F 8Dn)	.	8r	.
4r	.	16r	.
.	.	(>16ee-KL 16e-\	.
.	.	[>8ee-J [<8e-	.
*ped	*	*	*
=16	=16	=16	=16
8EE-'>L\	.	8.ee-L] 8.e-]\	>
8r	.	.	.
.	.	16ee-k 16e-	.
(>8BnJ 8F 8Dn	.	8ee-J 8e-)	]
*Xped	*	*	*
4B-X 4G 4D-X)	.	8r	.
.	.	16r	.
.	.	(>16ee-KL 16e-\	.
8r	.	[>8ee-J [<8e-	.
!!LO:LB:g=original
=17	=17	=17	=17
*ped	*	*	*
!LO:TX:b:t=P:problem:znak pedalizacji przed nutą	!	!	!
8AA-'>L 8AAA-'>\	.	8.ee-L] 8.e-]\	.
8r	.	.	.
.	.	16a-k	.
(>8A-J 8G 8C	.	[>8ffJ [<8f	.
*Xped	*	*	*
4.A- 4.F 4.BBn)	.	8.ffL] 8.f]\	.
.	.	16ee-k 16e-	.
.	.	8ddnJ 8dn)	.
*ped	*	*	*
=18	=18	=18	=18
8AA-L 8AAA-\	.	8r	.
8r	.	16r	.
.	.	(>16dd-XKL	.
(>8B-J 8E- 8AA-	.	8dd-J 8g 8d-	.
*Xped	*	*	*
4.A- 4.E- 4.AA-)	.	8r	.
.	.	16r	.
.	.	16ccKL 16a- 16c\	.
.	.	8dd-J 8a- 8d-)	.
*ped	*	*	*
=19	=19	=19	=19
*	*	*^	*
!	!	!	!LO:TX:b:t=P:problem: dźwięki 4a- 4c mogą być ósemkami lub ćwierćnutami lub brakuje przy nich kropek	!
8FF 8FFF	.	(>8.ccL	4a- 4c/	.
8r	.	.	.	.
.	.	16b-Jk	.	.
*Xped	*	*	*	*
!	!	!LO:TX:a:t=ten	!	!
(>8G 8GG\	.	2b-	8a- 8dn 8B-	.
4F 4FF)\	.	.	8rb	.
.	.	.	16rb	.
.	.	.	16a-KL 16d 16B-	.
8r	.	.	(>8a-J 8d 8B-)	.
*ped	*	*	*	*
=20	=20	=20	=20	=20
8EE- 8EEE-	.	4.b-)	8re	.
8r	.	.	16re	.
.	.	.	16gKL 16d-X 16B-	.
(>8F 8FF\	.	.	8gJ 8d- 8B-	.
*Xped	*	*	*	*
.	.	.	.	.
4E- 4EE-)\	.	8r	4.ryy	.
.	.	16rb	.	.
.	.	(<16e-KL 16d- 16G	.	.
8r	.	8e-J 8d- 8G)	.	.
*	*	*v	*v	*
!!LO:PB:g=original
=21	=21	=21	=21
8AA- 8AAA-	.	8a- 8c 8A-	.
16r	.	16r	.
(>16gKL 16A- 16G-X	.	(>16eee-KL 16aa- 16ee-	.
8gJ 8A- 8G-	.	[>8eee-J [>8aa- [<8ee-	>
4f 4F)	.	8.eee-L] 8.aa-] 8.ee-])	]
.	.	(>16dddnk 16ddn	<
8r	.	8gggJ 8aa-	[
*ped	*	*	*
=22	=22	=22	=22
8AA- 8AAA-	.	8r	.
16r	.	16r	.
(>16f-XKL 16A- 16F-X	.	16ddd-XKL 16aa- 16dd-X	>
8f-J 8A- 8F-	.	8ddd-J 8aa- 8dd-	.
4e- 4A- 4E-)	.	8.ddd-L 8.aa- 8.dd-	]
*Xped	*	*	*
.	.	16ccck 16aa- 16cc	.
.	.	8qeee- 8qaa- 8qee-/	.
8r	.	8ddd-J 8aa- 8dd-)	.
*ped	*	*	*
=23	=23	=23	=23
*	*	*^	*
8FF 8FFF	.	4ryy	8.cccL 8.aa- 8.cc	.
16r	.	.	.	.
(>16gKL 16G	.	.	16bb-k 16aa- 16ddn 16b-	.
!	!	!LO:TX:a:t=ten	!	!
8gJ 8G	.	2bb-	8aa-J 8dd 8b-	.
*Xped	*	*	*	*
.	.	.	.	.
4f 4F)	.	.	8rb	.
.	.	.	16rb	.
.	.	.	16aa-KL 16dd 16b-	.
8r	.	.	(>8aa-J 8dd 8b-	.
*ped	*	*	*	*
=24	=24	=24	=24	=24
8EE- 8EEE-	.	4.bb-)	8rb	.
16r	.	.	16rb	.
16fKL 16F	.	.	16ggKL 16dd- 16b-	.
*Xped	*	*	*	*
8fJ 8F	.	.	8ggJ 8dd- 8b-	.
4e- 4E-	.	4.ryy	8rb	.
.	.	.	16rb	.
.	.	.	(>16ee-KL 16dd- 16g	.
8r	.	.	8ee-J 8dd- 8g	.
*	*	*v	*v	*
!!LO:LB:g=original
=25	=25	=25	=25
*ped	*	*	*
!LO:TX:b:t=P:problem:znak pedalizacji przed nutą	!	!	!
8AA- 8AAA-	.	8aa- 8cc 8a-)	.
16r	.	16r	.
16g-XKL 16G-X	.	16ggg-XKL 16gg-X	.
!	!	!LO:TX:t=cres _:problem:dynamics with extention lines	!
!	!	!	!LO:HP:b:t=cres:ext=ud
8g-J 8G-	.	8ggg-J 8gg-	<
4.g- 4.G-	.	4.ggg-^< 4.gg-	.
*Xped	*	*	*
.	.	.	.
=26	=26	=26	=26
.	.	16qqf/LL	.
.	.	16qqg-/JJ	.
*ped	*	*	*
4.e- 4.c 4.B-	.	4.g-^<T>	.
*Xped	*	*	*
.	.	.	.
*ped	*	*	*
(>16e-LL	.	(>16fLL	.
16c	.	16an	.
16An	.	16cc	.
16FJ	.	16ffJ	.
8FFJ)	.	8fffJ)	.
*Xped	*	*	*
.	.	.	.
*ped	*	*	*
=27	=27	=27	=27
8BB- 8BBB-	.	8bbb- 8bb-	.
16r	.	16r	.
16fKL 16dn 16A-	.	16aa-KL 16a-	.
8fJ 8d 8A-	.	8aa-J 8a-	.
*Xped	*	*	*
8f 8d 8A-	.	4.aa-^< 4.a-	.
16r	.	.	.
*ped	*	*	*
16BBnKL 16BBBn	.	.	.
8BBJ 8BBB	.	.	.
!!LO:LB:g=original
=28	=28	=28	=28
.	.	16qqg/LL	.
.	.	16qqa-/JJ	.
4.BBn 4.BBBn	.	4.a-^<T>\	.
*Xped	*	*	*
.	.	.	.
*ped	*	*	*
(>16fLL	.	(>16gLL	.
16dn	.	16bn	.
16Bn	.	16ddn	.
16GJ	.	16ggJ	.
8GGJ)	.	8gggJ)	.
*Xped	*	*	*
.	.	.	.
=29	=29	=29	=29
8C 8CC	.	8cccc 8ccc	.
8r	.	8r	.
(>8en 8G	.	8a-^<T>\	.
16fLL	.	(>16gLL	.
16dn	.	16bn	[[
!	!	!LO:TX:t=dim _:problem:dynamics with extention lines 	!
!	!	!	!LO:HP:b:t=dim:ext=ud
16Bn	.	16ddn	>
16GJ	.	16ggJ	.
8GGJ)	.	8gggJ)	.
*ped	*	*	*
=30	=30	=30	=30
8C 8CC	.	8cccc 8ccc	.
8r	.	8r	.
*Xped	*	*	*
(>8en 8G	.	(>8a-^<T>\	.
*ped	*	*	*
16fLL	.	16gLL	.
16dn	.	16bn	.
16Bn	.	16ddn	.
16GJ	.	16ggJ	.
8GGJ)	.	8gggJ	]]
*Xped	*	*	*
.	.	.	.
!!LO:LB:g=original
=31	=31	=31	=31
*ped	*	*	*
!LO:TX:b:t=P:problem:znak pedalizacji przed nutą	!	!	!
*	*	*8va	*
8C'< 8CC'<	.	8eeeen 8cccc 8eeen)	.
*	*	*X8va	*
!	!	!LO:TX:a:t=loco.	!
8r	.	8r	.
*Xped	*	*	*
(>8en 8G	.	(>8an^<t>\	.
*ped	*	*	*
16fLL	.	16gLL	.
16dn	.	16bn	.
16Bn	.	16ddn	.
16GJ	.	16ggJ	.
8GGJ)	.	8gggJ	.
*Xped	*	*	*
.	.	.	.
*ped	*	*	*
=32	=32	=32	=32
*	*	*8va	*
8C 8CC	.	8eeeen 8cccc 8eeen)	.
*	*	*X8va	*
!	!	!LO:TX:a:t=loco.	!
8r	.	8r	.
(>8en 8G	.	8an^<t>\	.
*ped	*	*	*
16fLL	.	(>16gLL	.
16dn	.	16bn	.
16Bn	.	16ddn	.
16GJ	.	16ggJ	.
8GGJ)	.	8gggJ	.
*Xped	*	*	*
.	.	.	.
*ped	*	*	*
=33	=33	=33	=33
*	*	*8va	*
8C'< 8CC'<	.	8eeeen 8cccc 8eeen)	.
*	*	*X8va	*
!	!	!LO:TX:a:t=loco.	!
4r	.	(>16enLL\	.
.	.	16ddn 16g	.
.	.	16cc	.
.	.	16gJJ	.
[>4.en [>4.G [<4.C	.	16ffLL 16cc	.
.	.	16een	.
.	.	16cc	.
.	.	16aan 16ee	.
.	.	16gg	.
.	.	16eeJJ	.
!!LO:LB:g=original
=34	=34	=34	=34
*^	*	*	*
*	*	*	*8va	*
4.ryy	(>4.en] 4.G] 4.C]	.	16dddnLL 16gg	.
.	.	.	16ccc	.
*Xped	*	*	*	*
.	.	.	16gg	.
.	.	.	16fff 16ccc	.
.	.	.	16eeen	.
.	.	.	16cccJJ	.
*ped	*	*	*	*
4f	4.c 4.G	.	16aaanLL 16eee	.
.	.	.	16ggg	.
.	.	.	16eee	.
.	.	.	16ddddn 16ggg	.
8eny	.	.	16cccc	.
*Xped	*	*	*	*
.	.	.	16gggJJ	.
*v	*v	*	*	*
=35	=35	=35	=35
*ped	*	*	*
4c 4En 4Cn)	.	16ffffLL 16cccc	>
.	.	16eeeen	.
.	.	16cccc	.
.	.	16ggg	.
8r	.	16eeeny	.
.	.	16cccJJ	.
*	*	*X8va	*
!	!	!LO:TX:a:t=loco.	!
!	!	!LO:TX:t=P:mixed beam:problem	!
4r	.	16ggLL\	.
.	.	16eeny\	.
.	.	16cc\	.
.	.	16g\	.
8r	.	16c\	]
.	.	16G<JJ)/	.
=36	=36	=36	=36
[>4.CC [<4.CCC	.	2.r	.
*Xped	*	*	*
.	.	.	.
(<8CCL] 8CCC]	.	.	.
8DD- 8DDD-	.	.	.
8DDnJ 8DDDn	.	.	.
!!LO:PB:g=original
=37	=37	=37	=37
*ped	*	*	*
!LO:TX:b:t=P:problem:znak pedalizacji przed nutą	!	!	!
8EE- 8EEE-)	.	(>4e-	<
4r	.	.	.
.	.	8f 8dn	.
8d-X>L	.	8g 8e-L	.
8c	.	8a- 8e-	.
8GJ	.	8b-J 8e-	[
=38	=38	=38	=38
4A-	.	4cc 4e-\	.
(>8dn 8Bn 8E-	.	8ff 8a- 8f	.
4.e- 4.c 4.E-)	.	[>4.ee- 4.a-)	.
=39	=39	=39	=39
*	*	*^	*
(>8d-L	.	2.ee-_>	4.g 4.e-	.
8c	.	.	.	.
8B-J	.	.	.	.
8qc/	.	.	.	.
8B-L	.	.	4.dd- 4.g 4.e-	.
8An	.	.	.	.
8B-J	.	.	.	.
*	*	*v	*v	*
=40	=40	=40	=40
8cL	.	2.ee-] 2.cc 2.a- 2.e-	.
8.A-	.	.	.
16E-Jk	.	.	.
4.E-)	.	.	.
=41	=41	=41	=41
*^	*	*	*
!LO:TX:b:t=legato	!	!	!	!
!	!	!	!LO:TX:t=cres _:problem:dynamics with extention lines 	!
!	!	!	!	!LO:HP:b:t=cres:ext=ud
4G	4EE-	.	(>[>2.e- 2.d-	<
8A-	8FF	.	.	.
8B-L]	8GGL	.	.	.
8c	8AA-	.	.	.
8GJ	8BB-J	.	.	.
=42	=42	=42	=42	=42
*	*	*	*^	*
8A-L	8C	.	8e-]	8ryy	.
8An	8FFL	.	[>4f^>	4e-	.
8B-J	8GGJ	.	.	.	.
8cL	8AAnL	.	4.f_>)	4.ryy	.
8d-	8BB-	.	.	.	.
8AJ	8CJ	.	.	.	.
*	*	*	*v	*v	*
!!LO:LB:g=original
=43	=43	=43	=43	=43
!	!	!	!LO:TX:b:t=P:problem:brak początku ligatury	!
!LO:TX:t=P:mixed beam:problem	!	!	!	!
8B-L/	8D-	.	N(>8f]	.
8c>\	8AA-L	.	4b- 4g-X	.
8d->J\	8BB-J	.	.	.
!	!	!	!LO:N:vis=4	!
8g>L 8e->	8CL	.	[>4.a-	.
8f>	8D-	.	.	.
8c>JN)	8E-J	.	.	.
=44	=44	=44	=44	=44
8d->L	8FL<	.	N(>8a-]	.
8dn>	8BB-	.	4cc 4a-	.
8e->J	8CJ	.	.	.
!	!	!	!LO:N:vis=4	!
8f>L	8DnL	.	4.b- 4.a-	.
8g>	8E-	.	.	.
8d>JN)	8FJ	.	.	.
*v	*v	*	*	*
=45	=45	=45	=45
*^	*	*	*
4ryy	2.E-	.	(>4ee- 4g 4e-\	.
8dn\	.	.	8ff 8b- 8f	.
8e-L 8d-X\	.	.	8ggL 8ee- 8g	.
8e- 8c	.	.	8aa- 8ee- 8a-	.
(<8e-J 8G	.	.	8bb-J 8ee- 8b-	.
=46	=46	=46	=46	=46
4ryy	4e- 4A- 4E-)	.	4ccc 4ee- 4cc)	.
*clefG2	*	*	*	*
!	!LO:N:vis=4	!	!	!
8ddn 8bn	4.e-	.	(>8fff 8aa- 8ff	[
4cc 4a-	.	.	4eee- 4aa- 4ee-)	.
*	*	*	*8va	*
*ped	*	*	*	*
8ryy	(>8dddn: 8bbn: 8ee-:	.	(>8ffff: 8aaa-: 8fff:	p
*	*	*	*X8va	*
*v	*v	*	*	*
=47	=47	=47	=47
4eee- 4ccc 4ee-)	.	4eee- 4aa-)	.
8r	.	8r	.
*clefF4	*	*	*
(>[>4.EE- 4.EEE-	.	4r	pp
.	.	8r	.
=48	=48	=48	=48
!LO:N:vis=4	!	!	!
8EE-] 8EEE-\	.	8ryy	.
8AAA-L	.	8AA-<L	.
8BBB-J	.	8BB-<J	.
4CC	.	4C<	.
8BBB-	.	8BB-<	.
!!LO:LB:g=original
=49	=49	=49	=49
4CC	.	4C<	.
8AAA-	.	8AA-<	.
4.AA-\ 4.AAA-\)	.	4.ryy	.
*clefG2	*	*	*
*ped	*	*	*
=50	=50	=50	=50
[>2.cc [>2.a- [>2.e- [<2.c	.	(>[>2.aaa- [<2.aa-	>
=51	=51	=51	=51
2.cc_> 2.a-_> 2.e-_> 2.c_<	.	2.aaa-_> 2.aa-_<	.
=52	=52	=52	=52
8cc] 8a-] 8e-] 8c]	.	8aaa-] 8aa-])	]
4r	.	8r	.
*Xped	*	*	*
.	.	(>8cccL	>
4r	.	8ccJ)	]
.	.	8r	.
!	!	!LO:TX:a:t=P:cross-measure beam:problem	!
8r	.	(>8ccc	.
=53	=53	=53	=53
2.r	.	8cc)	.
.	.	8r	.
.	.	(>8cccL	.
.	.	8ccJ)	.
.	.	8r	.
!	!	!LO:TX:a:t=P:cross-measure beam:problem	!
.	.	(>8ccc	.
!LO:CL:ed	!	!	!
*clefF4	*	*	*
*ped	*	*	*
=54	=54	=54	=54
8CC	.	8cc)	.
8r	.	8r	.
(>8f 8c 8G	.	(>8aanL 8b-	>
*Xped	*	*	*
8CL)	.	8ccJ)	]
8r	.	8r	.
!	!	!LO:TX:a:t=P:cross-measure beam:problem	!
(>8enJ 8c 8G	.	(>8gg 8b-	>
=55	=55	=55	=55
*ped	*	*	*
8FL)	.	8cc)	]
8rD	.	8r	.
(>8fJ 8c	.	(>8ff [<8an	>
.	.	8qgg/	.
*Xped	*	*	*
8DnL)	.	8ffL 8a]	.
8r	.	8een 8g	.
(>8cJ 8An	.	8ddn^>J 8f	]
!!LO:LB:g=original
=56	=56	=56	=56
!	!	!LO:TX:a:t=P:problem:brak zakończenia łuku	!
*ped	*	*	*
8GGL)\	.	8g)\	.
8r	.	8r	.
(>8cJ 8G 8Dn	.	(>8eenL 8f\	>
*Xped	*	*	*
8GGL)	.	8gJ)	]
8r	.	8r	.
!	!	!LO:TX:a:t=P:cross-measure beam:problem	!
8BnJ 8G	.	(>8ddn 8f\	>
=57	=57	=57	=57
*^	*	*	*
*ped	*	*	*	*
!LO:TX:t=P:mixed beam:problem	!	!	!	!
4.ryy	8CCL/	.	8g)\	]
.	8r	.	8r	.
!	!LO:S:s=1:note:problem:note-level slur	!	!	!
.	[>8cJ\ (<8G\	.	(>8cc [<8en\	>
.	.	.	8qdd	.
*Xped	*	*	*	*
8GL]	4.c] 4.C)	.	8ccL 8e]\	.
8A-	.	.	8bn 8f	.
[>8GJ	.	.	8ccJ 8e	]
*v	*v	*	*	*
=58	=58	=58	=58
*ped	*	*	*
8c 8G] 8CL	.	8cc 8e)\	.
8rD	.	8r	.
(>8fJ 8c 8G	.	(>8aanL 8b-	>
*Xped	*	*	*
8CL)	.	8ccJ)	]
8r	.	8r	.
*Xped	*	*	*
!	!	!LO:TX:a:t=P:cross-measure beam:problem	!
(>8enJ 8c 8G	.	(>8gg 8b-	>
=59	=59	=59	=59
*ped	*	*	*
8FL)	.	8cc)	]
8rD	.	8r	.
(>8fJ 8c	.	(>8ff 8an	>
.	.	8qgg/	.
8DnL)	.	8ffL 8a	.
*Xped	*	*	*
8r	.	8een 8g	.
(>8cJ 8A-	.	8ddn^>J 8f	]
=60	=60	=60	=60
*ped	*	*	*
8GGL)\	.	8g)\	.
8r	.	8r	.
(>8cJ 8G 8Dn	.	(>8eenL 8f\	>
*Xped	*	*	*
8GGL)	.	8gJ)	]
8r	.	8r	.
!	!	!LO:TX:a:t=P:cross-measure beam:problem	!
(>8BnJ 8G	.	(>8ddn 8f\	>
.	.	.	]]
!!LO:LB:g=original
=61	=61	=61	=61
*^	*	*	*
!	!	!	!LO:TX:a:t=P:problem:brak końcówki łuku	!
*ped	*	*	*	*
!	!LO:TX:t=P:mixed beam:problem	!	!	!
4.ryy	8CCL)/	.	8g)\	.
.	8r	.	8r	.
.	8cJ 8G\	.	(>8cc 8en\	>
.	.	.	8qdd	.
*Xped	*	*	*	*
8GL]	4.c 4.C	.	8ccL 8e\	.
8A-	.	.	8bn 8f	.
[>8GJ	.	.	[>8ccJ [<8e	]
=62	=62	=62	=62	=62
*ped	*	*	*	*
8c 8G]	8C'>L	.	8cc] 8e])\	.
8ryy	8r	.	8r	.
!LO:N:vis=4	!	!	!	!
[>8c [<8G	8GJ	.	(>8cc [<8eny\	.
.	.	.	8qdd	.
8GL]	4.c] 4.C	.	8ccL 8e]\	.
*Xped	*	*	*	*
8A-	.	.	8bn 8f	.
8GJ	.	.	8ccJ 8e	.
*v	*v	*	*	*
=63	=63	=63	=63
*	*	*^	*
*ped	*	*	*	*
4C\	.	4ryy	8cc\ 8e\)	.
.	.	.	8rb	.
(>8c 8G	.	8cc^>	(>8eL	.
4C)\	.	4ryy	8fJ)	.
*Xped	*	*	*	*
.	.	.	8rb	.
!	!	!	!LO:TX:b:t=P:mixed beam:problem	!
8c 8A-	.	[>8cc^>	(>8d	.
=64	=64	=64	=64	=64
*ped	*	*	*	*
4C\	.	8cc]	8a-)	.
.	.	8r	8ryy	.
8d 8A-	.	4.cc^>	8fL	.
*Xped	*	*	*	*
4C\	.	.	8gJ	.
.	.	.	8rg	.
(>8c 8B-	.	[>8cc^>	8en	.
*	*	*v	*v	*
=65	=65	=65	=65
*ped	*	*	*
8FF'>L\)	.	4cc_> 4a- 4enX]\	.
8r	.	.	.
(>8cJ 8A- 8C	.	8cc] 8f\	.
8FFL)	.	4r	.
8r	.	.	.
(>8fJ 8c 8F	.	(>8ff 8a-	.
!!LO:PB:g=original
=66	=66	=66	=66
.	.	8qgg/	.
!LO:TX:a:t=P:problem:brak końcówki łuku	!	!	!
8FFL)	.	8ffL	.
*Xped	*	*	*
8r	.	8ee-	.
(>8fJ 8d- 8F	.	8dd-J 8b-	.
*ped	*	*	*
8FFL\)	.	8ccL 8a-	.
8r	.	8a- N[<8f	.
8cJ 8F	.	8b-J 8g	.
=67	=67	=67	=67
*Xped	*	*	*
8F 8FF\	.	8cc 8a- 8fN])\	.
8r	.	8r	.
(>8F-X 8FF-X\	.	8cc 8a- 8f-X\	.
*ped	*	*	*
8EE-'>L)\	.	4r	.
8r	.	.	.
(>8cJ 8E-	.	(>8cc^> 8a- 8e-\	.
=68	=68	=68	=68
8EE-L)\	.	8.ccL	.
8r	.	.	.
.	.	16cck	.
*Xped	*	*	*
8cJ 8E-	.	8dd-J 8a- 8e-	.
*ped	*	*	*
8EE-L	.	8ee-L)	<
16r	.	16r	.
16ck 16E-	.	16a-k 16e-	.
*Xped	*	*	*
8B-J [>8E-	.	8b-J 8g 8d-	.
=69	=69	=69	=69
8A- 8E-] 8AA-	.	8ccL 8a- 8c	[
8r	.	8r	.
(>8G 8GG\	.	8ccJ 8b- 8en^<	.
*ped	*	*	*
8FF'>L)\	.	4r	.
8r	.	.	.
(>8cJ 8A- 8C	.	[>8cc^> 8a- 8f\	.
=70	=70	=70	=70
8FFL)	.	(>4cc]	.
8r	.	.	.
8fJ 8c 8F	.	8ff 8a-	.
.	.	8qgg/	.
8FFL	.	8ffL	.
*Xped	*	*	*
8r	.	8ee-	.
8fJ 8d- 8F	.	8dd-J 8b-	.
!!LO:LB:g=original
=71	=71	=71	=71
8fL 8c 8F	.	8ccL 8a-\	.
8c 8E-	.	8cc 8g	.
8FJ	.	8ddnJ 8a- 8f)	.
8G'>L	.	8g 8e-	.
8A-'>	.	8r	.
(>8GJ	.	[>8g^> [>8e- [<8c	.
=72	=72	=72	=72
8E-L	.	4g] 4e-] 4c]	.
8D-)	.	.	.
(>8CJ	.	[>8g^> 8e- 8c	.
!LO:TX:a:t=ten	!	!	!
(<4.GG)	.	4g] 4dn 4c	.
.	.	8g^> 8d 8Bn	.
=73	=73	=73	=73
*ped	*	*	*
!LO:TX:t=P:mixed beam:problem	!	!	!
8CC'<L)/	.	(>8g 8en 8c	.
8r	.	8r	.
(>8gJ\ 8B-\	.	8gg 8cc 8b-	.
8CL)	.	4r	.
8r	.	.	.
(>8fJ 8c 8A-	.	8ff 8cc 8a-)	.
=74	=74	=74	=74
8E-L)	.	4r	.
*Xped	*	*	*
8r	.	.	.
*ped	*	*	*
(>8e-J 8B- 8G	.	(>8ee- [>8b- [<8g	.
.	.	8qff/	.
8CL)	.	8ee-L 8b-] 8g]\	.
*Xped	*	*	*
8r	.	8a-	.
(>8d-J 8A- 8F	.	8dd-J 8f	.
=75	=75	=75	=75
*ped	*	*	*
8CL)	.	8cc 8en)\	.
8r	.	8r	.
(>8gJ 8B-	.	4.gg^> 4.cc 4.b-	.
8CL)	.	.	.
8r	.	.	.
*Xped	*	*	*
(>8fJ 8c 8A-	.	[>8ff^> [>8cc [<8a-	.
!!LO:LB:g=original
=76	=76	=76	=76
*ped	*	*	*
8CL)	.	4ff] 4cc] 4a-]\	.
p8r	.	.	.
(>8e-J 8B- 8G	.	8ee-^> [>8b- [<8g\	.
.	.	8qff/	.
8CL)	.	8ee-L 8b-] 8g]/	.
8r	.	8a-	.
*Xped	*	*	*
8d-J 8A- 8F	.	8dd-J 8f	.
=77	=77	=77	=77
*ped	*	*	*
8CL	.	8cc 8en\	.
8r	.	8r	.
(>8cJ 8En	.	(>4.ccc^< 4.cc	.
!	!	!LO:TX:t=cres _:problem:dynamics with extention lines	!
!	!	!	!LO:HP:b:t=cres:ext=ud
8CL)	.	.	<
*Xped	*	*	*
8r	.	.	.
*ped	*	*	*
8dnJ 8F	.	[>8ccc^< [>8ddn [<8cc	.
=78	=78	=78	=78
*Xped	*	*	*
8CL	.	4ccc] 4ddnX] 4cc]	.
8r	.	.	.
*ped	*	*	*
(>8fJ 8c 8A-	.	4.ccc^< 4.ff 4.cc	.
8CL)	.	.	.
*Xped	*	*	*
8r	.	.	.
*ped	*	*	*
(>8enJ 8c 8G	.	[>8ccc^< [>8een [<8cc	.
=79	=79	=79	=79
8CL)	.	4ccc] 4ee] 4cc]	.
*Xped	*	*	*
8r	.	.	.
*ped	*	*	*
(>8dnJ 8c 8F	.	4.ccc^< 4.ddn 4.cc	.
8CL)	.	.	.
*Xped	*	*	*
8r	.	.	.
*ped	*	*	*
(>8enJ 8c 8G	.	[>8ccc^< [>8een [<8cc	.
=80	=80	=80	=80
8CL)	.	4ccc] 4eenX] 4cc]	.
*Xped	*	*	*
8r	.	.	.
*ped	*	*	*
(>8a-J 8c 8B-	.	4.ccc^< 4.aa- 4.cc	.
8CL 8CC)	.	.	.
8r	.	.	.
*Xped	*	*	*
8gJ 8c 8B- 8G	.	8ccc^< 8gg 8cc	[[
!!LO:LB:g=original
=81	=81	=81	=81
.	.	8qaa-/	ff
*ped	*	*	*
!LO:TX:t=P:problem:oznaczenie pedalizacji przed nutami	!	!	!
!LO:TX:t=P:mixed beam:problem	!	!	!
8FFL/ 8FFF/	.	4ccc 4gg 4cc	.
8rF	.	.	.
8fJ\ 8c\ 8A-\ 8F\	.	4ccc 4ff 4cc)	.
8FL 8FF	.	.	.
8r	.	8r	.
*Xped	*	*	*
8fJ 8c 8A- 8F	.	(>8fff 8ff	.
=82	=82	=82	=82
.	.	8qggg 8qgg/	.
*ped	*	*	*
8FL 8FF	.	8fffL 8ff	.
8r	.	8eee- 8ee-	.
*Xped	*	*	*
8fJ 8d- 8B-	.	8ddd-J 8bb- 8dd-	.
*ped	*	*	*
8FL 8FF	.	8cccL 8aa- 8cc	.
8r	.	8aa- 8ff 8a-	.
*Xped	*	*	*
8cJ 8C	.	8bb-J 8gg 8b-	.
=83	=83	=83	=83
8FL 8FF\	.	8ccc 8aa- 8cc)	.
8r	.	8r	.
8F-XJ 8FF-X	.	8ccc^< 8aa- 8cc	.
*ped	*	*	*
8E-L 8EE-	.	4r	.
8r	.	.	.
8e-J 8c 8A- 8E-	.	[>8ccc [>8aa- [<8cc	.
=84	=84	=84	=84
8E-L 8EE-	.	8cccL] 8aa-] 8cc]	.
16r	.	16rb	.
16fk 16c 16A-	.	(>16ccck 16aa- 16cc	.
*Xped	*	*	*
8e-J 8c 8A- 8E-	.	8ddd-J 8aa- 8dd-	.
*ped	*	*	*
8E-L 8EE-	.	8eee-L 8aa- 8ee-)	.
16r	.	16rdd	.
16e-k 16c 16E-	.	(>16aa-k 16ee- 16a-	.
*Xped	*	*	*
8e-J 8d- 8G 8E-	.	8bb-J 8ee- 8b-	.
=85	=85	=85	=85
8A-L 8AA-	.	8ccc 8ee- 8cc)	.
8r	.	8r	.
8GJ 8GG	.	8ccc^< 8bb- 8een 8cc	.
*ped	*	*	*
8FL 8FF	.	4r	.
8r	.	.	.
8cJ 8A- 8F 8C	.	[>8ccc^< [>8aa- [>8ff [<8cc	.
!!LO:LB:g=original
=86	=86	=86	=86
8FF 8FFF	.	8ccc] 8aa-] 8ff] 8cc]	.
8r	.	8r	.
8f 8A- 8F	.	(>8fff 8aa- 8ff	.
8qg 8qG/	.	8qggg 8qgg/	.
*Xped	*	*	*
8fL 8A- 8F	.	8fffL 8aa- 8ff	.
8f-X 8A- 8F-X	.	8fff-X 8aa- 8ff-X	.
8e-J 8A- 8E-	.	8eee-J 8aa- 8ee-	.
=87	=87	=87	=87
8dnL 8A- 8Dn	.	8dddnL 8aa- 8ddn)	.
16r	.	16rdd	.
16d-Xk 16A- 16D-X	.	(>16ddd-Xk 16aa- 16dd-X	.
8cJ 8A- 8C	.	8cccJ 8aa- 8cc	.
8cL 8A- 8C	.	8cccL 8aa- 8cc)	.
8G 8C 8GG	.	(>8gg 8cc 8g	.
8B-J 8C 8BB-	.	8bb-J 8cc 8b-	.
=88	=88	=88	=88
*^	*	*	*
*	*	*	*	*^
4ryy	8A- 8C 8AA-	.	8aa- 8cc 8a-)	.	.
*ped	*	*	*	*	*
.	8rF	.	8r	.	.
2c 2G-X	(<2AA- 2AAA-	.	(>[<8a-	>	.
.	.	.	8a-]L	.	.
!	!	!	!	!	!LO:DY:rj
.	.	.	8g	.	p
.	.	.	8g-XJ	]]	.
*	*	*	*	*v	*v
*v	*v	*	*	*
=89	=89	=89	=89
8D- 8DD-)\	.	8fL 8d- 8F<	.
*Xped	*	*	*
4r	.	8c	.
.	.	8B-J)	.
4r	.	(>8A-L	.
.	.	8g 8G<	.
8r	.	8b-J 8B-<	.
!!LO:PB:g=original
=90	=90	=90	=90
*^	*	*	*
*ped	*	*	*	*
4r	4ryy	.	8a- 8A-)	.
.	.	.	8r	.
2c 2G-X	2AA- 2AAA-	.	(>8a-	>
.	.	.	8a-L	.
.	.	.	8gn	.
.	.	.	8g-XJ	]]
=91	=91	=91	=91	=91
*Xped	*	*	*	*
4ryy	4D- 4DD-	.	4f 4d- 4F<)	.
*ped	*	*	*	*
N[>2d- N[<2F	[>2GGn [<2GGGn	.	(>8f	>
.	.	.	8fL	.
.	.	.	8en	.
.	.	.	8gJ	]
*v	*v	*	*	*
=92	=92	=92	=92
*^	*	*	*
4ryy	8GG] 8GGG]\	.	8f 8d-<N] 8F<N])	.
.	8rGG	.	8r	.
2F	(>[>8GG 8GGG\	.	(>[>8f [<8d-	>
.	8GGL] 8GGG\	.	8fL] 8d-]	.
.	8AA- 8AAA-	.	8e- 8c	.
.	8BB-J 8BBB-	.	8d-J 8B-	]
=93	=93	=93	=93	=93
*	*	*	*	*^
4ryy	8C 8CC)\	.	8c< 8En<)	.	.
.	8r	.	8r	.	.
*ped	*	*	*	*	*
2Bn 2F	(<[>2GG 2GGG	.	(>[<8f	.	>
!	!	!	!LO:TX:t=dim _:problem:dynamics with extention lines	!	!
!	!	!	!	!LO:HP:b:t=dim:ext=ud	!
.	.	.	8fL]	>	.
.	.	.	8e-	.	.
.	.	.	8d-J	.	]
=94	=94	=94	=94	=94	=94
*Xped	*	*	*	*	*
4ryy	8GG] 8CC)\	.	8c 8En<)	.	.
.	8r	.	8r	.	.
*ped	*	*	*	*	*
2F 2GG	[>8GGG	.	(>8f 8d-	.	>
.	8GGGL]	.	8fL 8d-	.	.
.	8AAA-	.	8e- 8c	.	.
.	8BBB-J	.	8d-J 8B-	]]	]
*	*	*	*	*v	*v
*v	*v	*	*	*
!!LO:LB:g=original
=95	=95	=95	=95
!	!	!LO:TX:a:t=P:problem:brak końcówki łuku	!
[>4.CC\	.	4c 4En<)	.
!	!	!LO:TX:t=cres _:problem:dynamics with extention lines	!
!	!	!	!LO:HP:b:t=cres:ext=ud
.	.	(>8d- 8c 8F<	<
4C 4CC]\	.	4f 4c 4A-<	.
8c> 8G	.	8en	.
=96	=96	=96	=96
*^	*	*	*
4F\	2.C	.	4dn< 4c<	.
8G\	.	.	8en 8c	.
4c\	.	.	4a- 4e	.
8B-\	.	.	8g 8e)	.
*v	*v	*	*	*
=97	=97	=97	=97
4c 4B- 4C	.	(>4cc 4en\	.
8dn 8B- 8G 8C	.	8ddn 8cc 8f\	.
4f 4B- 4G 4C	.	4ff 4cc 4a-	.
8en 8B- 8G 8C	.	8een 8cc 8g	.
=98	=98	=98	=98
4dn 4B- 4F 4C	.	4ddn 4cc 4f\	.
8e- 8B- 8G 8C	.	8een 8cc 8g	.
.	.	8qee 8qcc 8qg/	.
4a- 4c 4B- 4C	.	4aa- 4ee 4cc	.
8g 8c 8B-	.	8gg 8cc 8b-	.
=99	=99	=99	=99
8f 8c 8F	.	8ff 8cc 8a-)	.
8rD	.	8r	.
4rD	.	(>4.a-^< 4.A-<	.
8rD	.	.	.
8F-X 8FF-X\	.	8dn 8Bn\	[[
!!LO:LB:g=original
=100	=100	=100	=100
*^	*	*^	*
8qEE-/	.	.	.	.	.
!LO:N:vis=2.	!	!	!	!	!
8E-L	2.E-	.	8a-L	8e- 8c	.
8B-	.	.	8g	2d-X	.
.	.	.	.	.	<
8A-J	.	.	8fJ	.	.
8GL	.	.	8e-L	.	.
8F	.	.	8cc	.	.
8GJ	.	.	8b-J 8e- 8d-	8ryy	[[
*v	*v	*	*	*	*
=101	=101	=101	=101	=101
(>8qAA-/	.	.	.	.
2.A-)	.	4a- 4e- 4c)	4.ryy	.
!	!	!LO:N:vis=4	!	!
.	.	8r	.	.
!	!	!	!LO:N:vis=4.	!
.	.	(>4dd-^>	4f 4d	.
.	.	8f#X	8e-	.
=102	=102	=102	=102	=102
*	*	*	*^	*
(>2.G	.	8ccL	8ryy	8gL 8e-	<
.	.	8bn	2f	8dn	.
.	.	8anJ	.	8cJ	.
.	.	8gL	.	8BnL	.
.	.	8een	.	8An	.
.	.	8ddnJ 8g 8f	8ryy	8BJ	[[
*	*	*	*v	*v	*
*	*	*v	*v	*
=103	=103	=103	=103
8c 8G 8C)	.	8cc 8g 8en)	.
4r	.	8r	.
.	.	(>8cccL	>
4r	.	8ccJ)	]
.	.	8r	p
!	!	!LO:TX:a:t=P:cross-measure beam:problem	!
8r	.	(>8ccc	>
=104	=104	=104	=104
2.rF	.	8cc)	]
.	.	8r	.
.	.	8cccL	>
.	.	8ccJ	]
.	.	8r	.
!	!	!LO:TX:a:t=P:cross-measure beam:problem	!
.	.	8ccc	>
!!LO:LB:g=original
=105	=105	=105	=105
*ped	*	*	*
8CC	.	8cc	]
8r	.	8r	.
(>8f 8c 8G	.	(>8aanL 8b-	>
8CL)	.	8ccJ)	]
*Xped	*	*	*
8r	.	8r	.
!	!	!LO:TX:a:t=P:cross-measure beam:problem	!
(>8enJ 8c 8G	.	(>8gg 8b-	>
=106	=106	=106	=106
8FL)	.	8cc)	]
8rD	.	8r	.
*ped	*	*	*
(>8fJ 8c	.	(>8ff 8an	>
.	.	8qgg/	.
8DnL)	.	8ffL 8a	.
8r	.	8een 8g	.
*Xped	*	*	*
8cJ 8An	.	8ddnJ 8f	]
=107	=107	=107	=107
*ped	*	*	*
8GGL\	.	8g)\	.
8r	.	8r	.
(>8cJ 8G 8Dn	.	(>8eenL 8f\	>
8GGL)\	.	8gJ)	]
8r	.	8r	.
*Xped	*	*	*
!	!	!LO:TX:a:t=P:cross-measure beam:problem	!
8BnJ 8G 8D	.	(>8ddn 8f\	>
=108	=108	=108	=108
*^	*	*	*
*ped	*	*	*	*
!	!LO:TX:t=P:mixed beam:problem	!	!	!
4.ryy	8CCL/	.	8g)\	]
.	8r	.	8r	.
.	8cJ\ [8G\	.	(>8cc [<8en\	>
.	.	.	8qdd/	.
!	!LO:TX:t=P:problem:ligatura od 4.c wygląda, jakby zaczynała się  przy ostatniej nucie w takcie 8G	!	!	!
8GL]	[>4.c [<4.C	.	8ccL 8e]\	.
8A-	.	.	8bn 8f	.
*Xped	*	*	*	*
[>8GJ	.	.	[>8ccJ [<8e	]
*v	*v	*	*	*
=109	=109	=109	=109
*ped	*	*	*
8cL] 8G] 8C]	.	8cc] 8e])\	.
8r	.	8r	.
*Xped	*	*	*
(>8dnJ 8G	.	(>8aanL 8b-	>
*ped	*	*	*
8CL)	.	8ccJ)	]
8r	.	8r	.
*Xped	*	*	*
!	!	!LO:TX:a:t=P:cross-measure beam:problem	!
(>8enJ 8G	.	(>8gg'> 8b-'>	>
.	.	.	]]
!!LO:PB:g=original
=110	=110	=110	=110
8FL)	.	8cc)	.
8rD	.	8r	.
8fJ 8c	.	(>8ff [<8an	>]
.	.	8qgg/	.
*ped	*	*	*
8DnL	.	8ffL 8a]	.
8rD	.	8een 8g	.
*Xped	*	*	*
8aJ 8c	.	8ddnJ 8f	>
=111	=111	=111	=111
*ped	*	*	*
8GGL\	.	8g)\	]
8r	.	8r	.
*Xped	*	*	*
(>8AnJ 8Dn	.	(>8eenL 8f\	.
*ped	*	*	*
8GGL\)	.	8gJ)	.
8r	.	8r	.
*Xped	*	*	*
!	!	!LO:TX:a:t=P:cross-measure beam:problem	!
(>8BnJ 8D	.	(>8ddn 8f\	.
=112	=112	=112	=112
*^	*	*	*
*ped	*	*	*	*
!	!LO:TX:t=P:mixed beam:problem	!	!	!
4.ryy	8CCL/)	.	8g)\	.
.	8r	.	8r	.
.	[>8cJ\ N[>8G\	.	(>8cc 8en\	>
*Xped	*	*	*	*
.	.	.	8qddn	.
!	!LO:TX:t=P:problem:ligatura od 4.c wygląda, jakby zaczynała się od ostatniej nuty w takcie 8G	!	!	!
8GLN]	4.c_> 4.C	.	8ccL 8e\	.
8A-	.	.	8bn 8f	.
[>8GJ	.	.	[>8ccJ [<8e	]
=113	=113	=113	=113	=113
*ped	*	*	*	*
4.ryy	8c] 8G] 8CL	.	8cc] 8enX])\	.
.	8r	.	8r	.
.	[>8cJ N[>8G	.	(>8cc [<8e\	>
.	.	.	8qddn/	.
!	!LO:TX:t=P:problem:ligatura od 4.c wygląda, jakby zaczynała się od ostatniej nuty w takcie 8G	!	!	!
8GLN]	4.c_> 4.C	.	8ccL 8e]\	.
8A-	.	.	8bn 8f	.
*Xped	*	*	*	*
[>8GJ	.	.	8ccJ 8e	]
*v	*v	*	*	*
!!LO:LB:g=original
=114	=114	=114	=114
*ped	*	*	*
4c] 4G] 4C	.	8cc 8e)\	.
.	.	8r	.
!	!	!LO:TX:t=dim _:problem:dynamics with extention lines	!
!	!	!	!LO:HP:b:t=dim:ext=ud
(>8c 8G	.	4cc 4e\	>
4C\	.	.	.
.	.	8r	.
!	!	!LO:TX:a:t=P:cross-measure beam:problem	!
8c 8G	.	(>[>8cc [<8e\	.
=115	=115	=115	=115
4C\	.	8cc] 8e]\	.
.	.	8r	.
8c 8G	.	4cc 4eny\	.
4C\	.	.	.
.	.	8r	.
*Xped	*	*	*
8c 8G)	.	8cc 8e)\	]
=116	=116	=116	=116
.	.	8qqe-X/L	<
.	.	8qqcc/	.
.	.	8qqcc/J	.
*ped	*	*	*
(>4AA-	.	(>[>4.ccc	.
*Xped	*	*	*
8e- 8A- 8E-	.	.	.
*ped	*	*	*
4.f-X 4.A- 4.F-X)	.	16cccLL]	.
.	.	16bb-	[
.	.	16aa-	.
.	.	16gg	.
.	.	16aa-	.
*Xped	*	*	*
.	.	16ff-XJJ	.
=117	=117	=117	=117
*^	*	*	*
*ped	*	*	*	*
4.ryy	(>8AAA-	.	16ddnLL	.
.	.	.	16ffn	.
.	8rD	.	16ee-	.
.	.	.	16cc	.
.	[>8E-	.	16a-	.
.	.	.	16fJJ	.
!	!LO:N:vis=4	!	!	!
4c	4.E-]	.	4e-	.
*Xped	*	*	*	*
!LO:TX:a:t=P:problem:łuk kończy się za kreską taktową	!	!	!	!
8B-)	.	.	8g 8d-)	.
*v	*v	*	*	*
!!LO:LB:g=original
=118	=118	=118	=118
.	.	(<8qqc/L	.
.	.	8qqe-/	.
.	.	8qqa-/	.
.	.	8qqcc/	.
.	.	8qqee-/	.
.	.	8qqaa-/	.
.	.	8qqccc)/J	.
*	*	*8va	*
*ped	*	*	*
(>8AA-'<	.	(>[>4.cccc	.
8r	.	.	.
8a- 8c 8E-	.	.	.
4.a- 4.c 4.F-X)	.	16ccccLL]	.
.	.	16bbb-	.
.	.	16aaa-	.
.	.	16ggg	.
.	.	16aaa-	.
.	.	16fff-XJJ	.
*	*	*X8va	*
=119	=119	=119	=119
!	!	!LO:TX:a:t=loco.	!
*ped	*	*	*
(>8AA-L\	.	16dddnLL	.
.	.	16fffn	.
8r	.	16eee-	.
.	.	16ccc	.
8FJ	.	16aa-	.
.	.	16ffJJ	.
4c	.	16ee-LL\	.
.	.	16cc	.
*Xped	*	*	*
.	.	16a-	.
.	.	16f	.
8A- 8BB-)	.	16c	.
.	.	16dnJJ)	.
=120	=120	=120	=120
.	.	(<8qqe-/LL	.
.	.	8qqg/JJ	.
*ped	*	*	*
8EE-	.	(>[>4.gg)	.
8r	.	.	.
*Xped	*	*	*
!	!	!	!LO:HP:b=2
(>8e-: 8G: 8BB-:	.	.	<
*ped	*	*	*
4.e-: 4.G: 4.C-X:)	.	16ggLL]	[
.	.	16ff	.
.	.	16ee-	.
.	.	16ddn	.
.	.	16ee-	.
*Xped	*	*	*
.	.	16cc-XJJ	.
!!LO:LB:g=original
=121	=121	=121	=121
*^	*	*	*
!LO:TX:b:t=P:problem:znak pedalizacji przed nutą	!	!	!	!
*ped	*	*	*	*
8EEE-	4.ryy	.	16anLL	.
.	.	.	16ccn	.
(>8r	.	.	16b-	.
.	.	.	16g	.
N[<8BB-	.	.	16e-	.
.	.	.	16cJJ	.
4G	4.BB-N]	.	4B-	.
*Xped	*	*	*	*
.	.	.	.	.
8F)	.	.	8dn 8Any)	.
*v	*v	*	*	*
=122	=122	=122	=122
.	.	(<8qqG/L	.
.	.	8qqB-/	.
.	.	8qqe-/	.
.	.	8qqg/	.
.	.	8qqb-/	.
.	.	8qqee-/	.
.	.	8qqgg)/J	.
*ped	*	*	*
8EE-'<	.	(>[>4.ggg	.
8r	.	.	.
*Xped	*	*	*
8b-: 8B-: 8E-:	.	.	.
*ped	*	*	*
4.cc-X: 4.c-X: 4.E-:	.	16gggLL]	.
.	.	16fff	.
.	.	16eee-	.
.	.	16dddn	.
.	.	16eee-	.
*Xped	*	*	*
.	.	16ccc-XJJ	.
=123	=123	=123	=123
*ped	*	*	*
8EE-'>L\	.	16aanLL	.
.	.	16cccn	.
8r	.	16bb-	.
.	.	16gg	.
(>8E-J	.	16ddn	.
.	.	16ee-JJ	.
*clefG2	*	*	*
!LO:S:s=1:note:problem:note-level slur	!	!	!
4dd-) 4g 4e-X 4B-	.	16eenLL	.
.	.	16gg	.
.	.	16ff	.
.	.	16dd-X	.
8r	.	16b-	.
.	.	16fJJ)	.
!LO:CL:ed	!	!	!
*clefF4	*	*	*
!!LO:PB:g=original
=124	=124	=124	=124
!	!	!LO:TX:b:t=leggiero	!
*ped	*	*	*
8AA-	.	(>16e-LL	.
.	.	16a-	.
4e- 4c 4E-	.	16cc	.
.	.	16ee-	.
*Xped	*	*	*
.	.	16gg	.
.	.	16ffJJ	.
*ped	*	*	*
8BB-	.	16ee-LL	.
.	.	16cc	.
4e- 4G 4E-	.	16dd-	.
.	.	16an	.
.	.	16b-	.
*Xped	*	*	*
.	.	16fJJ	.
=125	=125	=125	=125
*ped	*	*	*
8C	.	16e-LL	.
.	.	16a-	.
4e- 4A- 4E-	.	16cc	.
.	.	16ee-	.
*Xped	*	*	*
.	.	16gg	.
.	.	16ffJJ	.
*ped	*	*	*
8GG	.	16ee-LL	.
.	.	16cc	.
4e- 4B- 4E-	.	16dd-	.
.	.	16an	.
*Xped	*	*	*
.	.	16b-	.
.	.	16d-JJ	.
=126	=126	=126	=126
*ped	*	*	*
8AA-	.	16cLL	.
.	.	16d-	.
4r	.	16e-	.
.	.	16f	.
.	.	16g-X	.
.	.	16a-JJ	.
!LO:TX:t=P:problem:ligatury zaczynają się po 8dn	!	!	!
(>4g-X N[>4.c N[>4.A- N[<4.G-X	.	16b-LL	.
.	.	16cc	.
.	.	16dd-	.
.	.	16ee-	.
8dn	.	16ff	.
*Xped	*	*	*
.	.	16gg-yJJ	.
!!LO:LB:g=original
=127	=127	=127	=127
*^	*	*	*
4.e-	2.cN] 2.A-N] 2.G-XN]	.	16cccLL	.
.	.	.	16bb-	.
.	.	.	16aa-	.
.	.	.	16bb-	.
.	.	.	16aa-	.
.	.	.	16gg-XJJ	.
4.en)	.	.	16aa-LL	.
.	.	.	16gg-	.
.	.	.	16ff	.
.	.	.	16gg-	.
.	.	.	16ff	.
.	.	.	16eenJJ	.
*v	*v	*	*	*
=128	=128	=128	=128
*ped	*	*	*
8D-	.	16ffLL	.
.	.	16gg-X	.
4a- 4f 4A-	.	16ggn	.
.	.	16aa-	.
*Xped	*	*	*
.	.	16ccc	.
.	.	16bb-JJ	.
*ped	*	*	*
8E-	.	16aa-LL	.
.	.	16ff	.
4a- 4c 4A-	.	16gg-X	.
.	.	16ddn	.
.	.	16ee-	.
*Xped	*	*	*
.	.	16b-JJ	.
=129	=129	=129	=129
*ped	*	*	*
8F	.	16a-LL	.
.	.	16dd-	.
4a- 4d- 4A-	.	16ff	.
.	.	16aa-	.
*Xped	*	*	*
.	.	16ccc	.
.	.	16bb-JJ	.
*ped	*	*	*
8C\	.	16aa-LL	.
.	.	16ff	.
4a- 4e- 4A-	.	16gg-X	.
.	.	16ddn	.
*Xped	*	*	*
.	.	16ee-	.
.	.	16g-XJJ	.
!!LO:LB:g=original
=130	=130	=130	=130
*^	*	*	*
*ped	*	*	*	*
8DD-	4.ryy	.	16fLL\	.
.	.	.	16gn	.
4r	.	.	16a-	.
.	.	.	16b-	.
.	.	.	16cc	.
.	.	.	16dd-JJ	.
*clefG2	*	*	*	*
[>4.a- [>4.f	(<4d-	.	16ee-LL	.
.	.	.	16een	.
*Xped	*	*	*	*
.	.	.	16ff	.
.	.	.	16gg	.
.	8An	.	16aan	.
.	.	.	16bb-JJ	.
=131	=131	=131	=131	=131
*	*	*	*8va	*
2.a-] 2.f]	4.B-	.	16cccLL	.
.	.	.	16ddd-	.
.	.	.	16eee-	.
.	.	.	16eeen	.
.	.	.	16fff	.
.	.	.	16gggJJ	.
.	4.c)	.	16aaanLL	.
.	.	.	16bbb-	.
.	.	.	16cccc	.
.	.	.	16dddd-	.
.	.	.	16eeee-	.
.	.	.	16eeeenJJ	.
*clefF4	*	*	*	*
*v	*v	*	*	*
=132	=132	=132	=132
!	!	!LO:TX:t=dim _:problem:dynamics with extention lines	!
!	!	!	!LO:HP:b:t=dim:ext=ud
8D-	.	16ffffLL	>
.	.	16eeeen	.
!LO:N:vis=4	!	!	!
8r	.	16eeee-X	.
.	.	16dddd-	.
(>8f	.	16cccc	.
*clefG2	*	*	*
.	.	16bbb-JJ	.
8b-L 8a- 8f	.	16aaa-LL	.
.	.	16ggg	.
16r	.	16fff	.
16cck 16a- 16f	.	16eeen	.
8dd-J 8b- 8a-	.	16eee-X	.
.	.	16ddd-JJ	]]
*	*	*X8va	*
!!LO:LB:g=original
=133	=133	=133	=133
!	!	!LO:TX:a:t=loco	!
!	!	!LO:TX:t=cres _:problem:dynamics with extention lines	!
!	!	!	!LO:HP:b:t=cres:ext=ud
4dd- 4b- 4a-	.	16cccLL	<
.	.	16bb-	.
.	.	16aa-	.
.	.	16gg	.
8f 8d- 8B- 8A-	.	16ff	.
.	.	16eenJJ	.
4f 4d- 4B- 4A-)	.	16ee-XLL	.
.	.	16dd-	.
.	.	16cc	.
.	.	16ee-	.
8r	.	16dd-	.
.	.	(>16fJJ)	.
*clefF4	*	*	*
*ped	*	*	*
=134	=134	=134	=134
8D-L 8DD-	.	4.b-^<T>	.
8f 8B-	.	.	.
8FJ	.	.	.
*Xped	*	*	*
.	.	.	.
.	.	16qqa/LL	.
.	.	16qqb-/JJ	.
*ped	*	*	*
8CL	.	4.cc^<t>	.
8e- 8An	.	.	.
8FJ	.	.	.
*Xped	*	*	*
.	.	.	.
.	.	16qqb-/LL	.
.	.	16qqcc/JJ	.
=135	=135	=135	=135
*ped	*	*	*
8BB-L	.	4.dd-^<T>	.
8d- 8B-	.	.	.
8FJ	.	.	.
*Xped	*	*	*
.	.	.	.
.	.	16qqcc/LL	.
.	.	16qqdd-/JJ	.
*ped	*	*	*
8D-L	.	8eent>L	.
8f 8B-	.	16dd#XL	.
.	.	16ee	.
8A-J	.	16gg	.
*Xped	*	*	*
.	.	16ffJJ	[
!!LO:LB:g=original
=136	=136	=136	=136
*	*	*^	*
.	.	[<8qee-X/	.	.
*ped	*	*	*	*
!LO:TX:b:t=P:problem:znak pedalizacji przed nutą	!	!	!	!
!	!	!LO:TX:a:t=sostenuto.	!	!
(>16EE-LL\	.	4.ee-] 4.e-\	4.ryy	.
16BB-	.	.	.	.
16E-	.	.	.	.
16G	.	.	.	.
16E-	.	.	.	.
*Xped	*	*	*	*
16BB-JJ)	.	.	.	.
*ped	*	*	*	*
(>16FFLL\	.	8aa-L 8a-	4.dd-	>
16AA-	.	.	.	.
16D-	.	8gg 8g	.	.
16A-	.	.	.	.
!	!	!LO:S:s=1:note:problem:note-level slur	!	!
16D-	.	(>8ffJ 8f	.	.
*Xped	*	*	*	*
16AA-JJ)	.	.	.	]
=137	=137	=137	=137	=137
*ped	*	*	*	*
!	!	!LO:S:s=1:note:problem:note-level slur	!	!
(>16GGLL\	.	4.ee-) 4.dd- 4.e-	4.ryy	.
16D-	.	.	.	.
16E-	.	.	.	.
16B-	.	.	.	.
16E-	.	.	.	.
*Xped	*	*	*	*
16D-JJ)	.	.	.	.
*ped	*	*	*	*
(>16FFLL\	.	8aa-L 8a-	4.dd-	>
16AA-	.	.	.	.
16D-	.	8gg 8g	.	.
16A-	.	.	.	.
!	!	!LO:S:s=1:note:problem:note-level slur	!	!
16D-	.	(<8ffJ 8f	.	]
*Xped	*	*	*	*
16AA-JJ)	.	.	.	.
=138	=138	=138	=138	=138
*ped	*	*	*	*
!	!	!LO:S:s=1:note:problem:note-level slur	!	!
(>16GGLL	.	4ee-) 4dd- 4e-	4ryy	.
16D-	.	.	.	.
16E-	.	.	.	.
16B-	.	.	.	.
16E-	.	4.ff 4.dd-	2f	>
*Xped	*	*	*	*
16D-JJ)	.	.	.	.
*ped	*	*	*	*
(>16AAnLL	.	.	.	.
16E-	.	.	.	.
16F	.	.	.	.
16c	.	.	.	.
16F	.	8ee- 8cc	.	.
*Xped	*	*	*	*
16E-JJ)	.	.	.	]
!!LO:PB:g=original
=139	=139	=139	=139	=139
.	.	8qee-/	.	.
*ped	*	*	*	*
(>16BB-LL	.	8dd-L	4.a- 4.f	.
16F	.	.	.	.
16A-	.	8cc	.	.
16d-	.	.	.	.
16A-	.	8b-J	.	.
*Xped	*	*	*	*
16FJJ)	.	.	.	.
*ped	*	*	*	*
(>16EE-LL\	.	4cc	4.g 4.d-	<
16BB-	.	.	.	.
16E-	.	.	.	.
16G	.	.	.	.
16E-	.	8dd-	.	.
*Xped	*	*	*	*
16BB-JJ)	.	.	.	[
=140	=140	=140	=140	=140
*ped	*	*	*	*
(>16FFLL	.	8dd- 8a- 8d-)	4.ryy	<
16AA-	.	.	.	.
16D-	.	8r	.	.
16F	.	.	.	.
*	*	*8va	*	*
16A-	4	(>8aaa- 8aa-	.	.
16d-JJ	2	.	.	.
16a-LL	1	8aaa-L 8aa-\	4.ddd-	>
16d-	.	.	.	.
16A-	.	8ggg 8gg	.	.
16F	.	.	.	.
16D-	.	8fffJ 8ff	.	]
*Xped	*	*	*	*
16AA-JJ)	.	.	.	.
=141	=141	=141	=141	=141
*ped	*	*	*	*
(>16GGLL	.	8eee- 8ddd- 8ee-\)	4.ryy	.
*	*	*X8va	*	*
16D-	.	.	.	.
!	!	!LO:TX:a:t=loco	!	!
16E-	.	(>8cccL 8cc	.	.
16d-	.	.	.	.
16E-	.	8bb-J 8b-	.	.
*Xped	*	*	*	*
16D-JJ)	.	.	.	.
*ped	*	*	*	*
!	!	!	!LO:TX:a:t=ten	!
(>16FFLL	.	8aa-L 8a-\	4.dd-	>
16D-	.	.	.	.
16A-	.	8gg 8g	.	.
16d-	.	.	.	.
16A-	.	8ffJ 8f	.	]
*Xped	*	*	*	*
16D-JJ)	.	.	.	.
*	*	*v	*v	*
!!LO:LB:g=original
=142	=142	=142	=142
*ped	*	*	*
(>16GGLL	.	8ee- 8dd- 8e-\	.
16E-	.	.	.
16B-	.	2ff 2dd- [<2f	>
16d-	.	.	.
16B-	.	.	.
*Xped	*	*	*
16E-JJ)	.	.	.
*ped	*	*	*
(>16AAnLL	.	.	.
16E-	.	.	]
16F	.	.	.
16c	.	.	.
16F	.	8ee- 8cc 8f]	.
*Xped	*	*	*
16E-JJ)	.	.	.
=143	=143	=143	=143
*	*	*^	*
.	.	8qee-/	.	.
*ped	*	*	*	*
(>16BB-LL	.	8dd-L	4.a- 4.f	<
16F	.	.	.	.
16A-	.	8cc	.	.
16d-	.	.	.	.
16A-	.	8b-J	.	.
*Xped	*	*	*	*
16FJJ)	.	.	.	.
*ped	*	*	*	*
(>16EE-LL\	.	4.ryy	4cc 4g 4d-\	[
16BB-	.	.	.	.
16E-	.	.	.	.
16G	.	.	.	.
!	!	!	!LO:S:s=1:note:problem:note-level slur	!
16E-	.	.	((<8e- 8d-\	.
*Xped	*	*	*	*
16BB-JJ)	.	.	.	.
*	*	*v	*v	*
=144	=144	=144	=144
*	*	*	*^
*ped	*	*	*	*
8E- 8AA-	.	8a- 8c))	.	.
4r	.	8r	.	.
.	.	(>8aa-L	>	.
.	.	.	.	p
4r	.	8a-J)	]	.
.	.	8r	.	.
!	!	!LO:TX:a:t=P:cross-measure beam:problem	!	!
8r	.	(>8aa-	>	.
*	*	*	*v	*v
!!LO:LB:g=original
=145	=145	=145	=145
2.r	.	8a-)\	]
.	.	8r	.
.	.	(>8aa-L	>
.	.	8a-J)	]
.	.	8r	.
!	!	!LO:TX:a:t=P:cross-measure beam:problem	!
.	.	(>8aa-	>
*ped	*	*	*
=146	=146	=146	=146
!LO:TX:t=P:mixed beam:problem	!	!	!
8AAA-L/	.	8a-)\	]
8r	.	8r	.
*Xped	*	*	*
(>8d-J\ 8A-\ 8E-\	.	(>8ffL 8g-X	.
*ped	*	*	*
8AA-L)	.	8a-J)	.
8r	.	8r	.
*Xped	*	*	*
!	!	!LO:TX:a:t=P:cross-measure beam:problem	!
8cJ 8A- 8E-	.	(>8ee- 8g-	.
=147	=147	=147	=147
*ped	*	*	*
8D-L	.	8a-)\	.
8r	.	8r	.
(>8d-J 8A-	.	8dd- [<8f\	>
.	.	8qee-/	.
8BB-L)	.	8dd-L 8f]\	.
8r	.	8cc 8e-	.
*Xped	*	*	*
(>8A-J 8F	.	8b-J 8d-	]
=148	=148	=148	=148
*ped	*	*	*
8EE-L)\	.	8e- 8d-	.
8r	.	8r	.
(>8A-J 8E-	.	(>8ccL 8d-\	.
8EE-L\)	.	8e-J)	.
8r	.	8r	.
*Xped	*	*	*
!	!	!LO:TX:a:t=P:cross-measure beam:problem	!
8GJ 8E-	.	(>8b- 8d-\	.
!!LO:LB:g=original
=149	=149	=149	=149
*^	*	*	*
*	*^	*	*	*
*ped	*	*	*	*	*
!LO:TX:t=P:problem:oznaczenie pedalizacji przed nutą	!	!	!	!	!
!	!LO:TX:t=P:mixed beam:problem	!	!	!	!
4.ryy	8AAA-L/	4.ryy	.	8e-)\	.
.	8r	.	.	8r	.
!	!LO:S:s=1:note:problem:note-level slur	!	!	!	!
.	N[>8A-J\ (>8E-\	.	.	8a- 8c	>
.	.	.	.	8qb-/	.
4.A-N]	4.AA-)	8E-L	.	8a-L 8c	.
*Xped	*	*	*	*	*
.	.	8F-	.	8g 8d-	.
.	.	8E-J	.	[>8a-J [<8c	]
*	*v	*v	*	*	*
*v	*v	*	*	*
=150	=150	=150	=150
*ped	*	*	*
8A- 8E- 8AA-L	.	8a-] 8c]	.
8r	.	8r	.
*Xped	*	*	*
(>8B-J 8E-	.	(>8ffL 8g-X	>
8AA-L)	.	8a-J)	]
8r	.	8r	.
!	!	!LO:TX:a:t=P:cross-measure beam:problem	!
(>8cJ 8E-	.	(8ee- 8g-	>
=151	=151	=151	=151
*ped	*	*	*
8D-L)	.	8a-)\	]
8r	.	8r	.
(>8d-J 8A-	.	(>8dd- [<8f\	>
.	.	8qee-/	.
8BB-L)	.	8dd-L 8f]\	.
8r	.	8cc 8e-	.
*Xped	*	*	*
(>8fJ 8A-	.	8b-J [<8d-	]
*ped	*	*	*
=152	=152	=152	=152
8EE-L)\	.	8e- 8d-])	.
8r	.	8r	.
*Xped	*	*	*
(>8FJ 8BB-	.	8ccL 8d-\	>
*ped	*	*	*
8EE-L)\	.	8e-J	]
8r	.	8r	.
*Xped	*	*	*
!	!	!LO:TX:a:t=P:cross-measure beam:problem	!
(>8GJ 8BB-	.	(>8b- 8d-\	>
!!LO:LB:g=original
=153	=153	=153	=153
*^	*	*	*
*ped	*	*	*	*
!LO:TX:t=P:problem:oznaczenie pedalizacji przed nutą	!	!	!	!
!	!LO:TX:t=P:mixed beam:problem	!	!	!
4.ryy	8AAA-L)/	.	8e-)\	]
.	8rD	.	8r	.
!	!LO:S:s=1:note:problem:note-level slur	!	!	!
.	[>8A-J\ (>8E-\	.	(>8a- [>8c	>]
.	.	.	8qb-/	.
!	!LO:TX:t=P:problem:ligatura wygląda, jakby zaczynała się po ostatniej nucie w takcie 8E	!	!	!
8E-L\	4.A-_> 4.AA-)	.	8a-L 8c]	.
*Xped	*	*	*	*
8F-X	.	.	8g 8d-	.
[>8E-J	.	.	[>8a-J [<8c	.
=154	=154	=154	=154	=154
*ped	*	*	*	*
4.ryy	8A-] 8E-] 8AA-L	.	8a-] 8c])	.
.	8r	.	8r	.
!	!LO:S:s=1:note:problem:note-level slur	!	!	!
.	[>8A-J (>8E-	.	(>8a- 8c	>
.	.	.	8qb-/	.
!	!LO:S:s=2:note:problem:note-level slur	!	!	!
8E-L\	4.A-] 4.AA-)	.	8a-L 8c	.
*Xped	*	*	*	*
8F-X	.	.	8g 8d-	.
8E-J	.	.	[>8a-J [<8c	]
*v	*v	*	*	*
=155	=155	=155	=155
*	*	*^	*
*ped	*	*	*	*
(>4AA-	.	8a-] 8c]	4ryy	<
.	.	8r	.	.
8A- 8E-	.	4a-^>)	8cL	.
*Xped	*	*	*	*
4AA-	.	.	8d-J	.
.	.	8ryy	8re	.
*ped	*	*	*	*
!	!	!LO:TX:a:t=P:cross-measure beam:problem	!	!
8A- 8F-X	.	[>8a-^>	8B-	.
=156	=156	=156	=156	=156
4AA-	.	8a-]	8f-X	[
.	.	8r	8r	.
*Xped	*	*	*	*
8B- 8F-X	.	4a-^>	8d-L	.
*ped	*	*	*	*
4AA-	.	.	8e-J	.
.	.	8ryy	8re	.
!	!	!	!LO:TX:a:t=P:cross-measure beam:problem	!
8G-X)	.	8a-^>	(>8c	.
*Xped	*	*	*	*
*	*	*v	*v	*
!!LO:PB:g=original
=157||	=157||	=157||	=157||
*k[f#c#g#d#]	*	*k[f#c#g#d#]	*
*	*	*^	*
8CC#'<	.	8g#	8e)	.
!	!	!LO:TX:b:t=m. v.	!	!
(>16BBB#XLL	.	8r	4ryy	.
16CC#	.	.	.	.
16FF#	.	(>4.g#^> 4.e 4.c# 4.G#	.	.
16EEJJ	.	.	.	.
16DD#LL	.	.	4.ryy	.
16EE	.	.	.	.
16AA	.	.	.	.
16GG#	.	.	.	.
16FF##X	.	8cc# 8e 8c#	.	.
16GG#JJ	.	.	.	.
*	*	*v	*v	*
=158	=158	=158	=158
!	!	!	!LO:HP:a
16D#LL\	.	8cc#L 8e 8c#	>
16C#	.	.	.
16BB#X	.	8b 8e 8c#	.
16C#	.	.	.
16C##X	.	8aJ 8f# 8B#X	.
16D#JJ	.	.	.
16ELL	.	8g#L 8c#	.
16E#X	.	.	.
16F#	.	8e'< 8c#'<	.
16F##X	.	.	.
16G#	.	8f#'<J 8c#'<	]
16AJJ	.	.	.
=159	=159	=159	=159
8G#'> 8C#'>)	.	8g#'< 8e'< 8c#'<)	.
(>16B#XLL	.	8r	.
16c#	.	.	.
16d#	.	4.g#^> 4.e	.
16c#JJ	.	.	.
16BnLL	.	.	.
16cn	.	.	.
16dn	.	.	.
16c	.	.	.
16d	.	[>8g#^> [<8e	.
16cJJ	.	.	.
!!LO:LB:g=original
=160	=160	=160	=160
16A#XLL	.	(>8g#L] 8e]	.
16B	.	.	.
16c#	.	8g# 8e	.
16B	.	.	.
16c#	.	8aJ 8f# 8e	.
16BJJ)	.	.	.
8BB'<L	.	8bL 8a 8d#	.
(<16C#L	.	8e 8A	.
16BB	.	.	.
16C#	.	8f#J 8d# 8B 8A	.
16BBJJ	.	.	.
=161	=161	=161	=161
8EE'<L)	.	8g# 8e 8B) 8G#	.
(>16AAL	.	8r	.
16GG#	.	.	.
16DD#	.	8g#^> 8f# 8B#X 8G#	.
16GG#JJ	.	.	.
16CC#LL	.	4r	.
16GG#	.	.	.
16FF##X	.	.	.
16GG#	.	.	.
16D#	.	[>8g#^> [>8e 8c# [<8G#	.
16C#JJ	.	.	.
=162	=162	=162	=162
16BB#XLL	.	(>4g#] 4e] 4c# 4G#]	.
16C#	.	.	.
16F#	.	.	.
16E	.	.	.
!	!	!	!LO:HP:a
16D#	.	8cc# 8e 8c#	>
16EJJ	.	.	.
16ALL	.	8cc#L 8e 8c#	.
16G#	.	.	.
16F##X	.	8bn 8e 8c#	.
16G#	.	.	.
16d#	.	8aJ 8e	]
16c#JJ	.	.	.
!!LO:LB:g=original
=163	=163	=163	=163
16B#XLL	.	8g#L 8e)	.
16c#	.	.	.
16c##X	.	8g#'<	.
16d#	.	.	.
16f#	.	8a#X'<J 8g#'<	.
16eJJ	.	.	.
16c##LL	.	8b'< 8g#'<	.
16d#	.	.	.
16e	.	8r	.
16d#	.	.	.
!	!	!	!LO:HP:a
16c#X	.	(<8ee 8g# 8e	>
16G#JJ	.	.	.
=164	=164	=164	=164
16A#XLL	.	8dd# 8g# 8d#)	]
16B	.	.	.
16c#	.	8r	.
16B	.	.	.
!	!	!	!LO:HP:a
!	!	!LO:S:s=2:note:problem:note-level slur	!
16G#	.	[>8dd# (>8b [>8g# [<8d#	>
16BBJJ	.	.	.
!	!	!LO:S:s=2:note:problem:note-level slur	!
8D#L)	.	8dd#] 8a) 8g#] 8d#]	]
(>16EL	.	8r	.
16D#	.	.	.
!	!	!LO:S:s=1:note:problem:note-level slur	!
16E	.	(>8dd# 8a#X 8f##X 8d# 8c#	.
16D#JJ	.	.	.
=165	=165	=165	=165
*ped	*	*	*
8GG#)	.	(>16gg#LL)	.
.	.	16g#	.
8r	.	16gg#	.
!	!	!LO:TX:t=cres _:problem:dynamics with extention lines	!
!	!	!	!LO:HP:b:t=cres:ext=ud
.	.	16gg#	<
(>4.d# 4.G# 4.F#	.	16ggg#	.
.	.	16gg#JJ)	.
.	.	(>16gg#LL	.
.	.	16g#	.
.	.	16gg#	.
.	.	16gg#	.
*Xped	*	*	*
[>8c# [>8G# [<8E	.	16ggg#	.
.	.	16gg#JJ)	.
!!LO:LB:g=original
=166	=166	=166	=166
*^	*	*	*
4.ryy	4c#] 4G#] 4E]	.	(>16gg#LL	.
.	.	.	16g#	.
.	.	.	16gg#	.
.	.	.	16gg#	.
.	8B 8F# 8D#	.	16ggg#	.
.	.	.	16gg#JJ)	.
8AL	4.C#	.	(>16gg#LL	.
.	.	.	16g#	.
8E	.	.	16gg#	.
.	.	.	16gg#	.
8F#J	.	.	16ggg#	.
.	.	.	16gg#JJ)	.
*v	*v	*	*	*
=167	=167	=167	=167
*ped	*	*	*
!LO:TX:t=P:problem:oznaczene pedalizacji przed nutą	!	!	!
8G# 8BB#X 8GG#)\	.	(>16gg#LL	.
.	.	16g#	.
8r	.	16gg#	.
.	.	16gg#	.
(>4.d# 4.G# 4.F#	.	16ggg#	.
.	.	16gg#JJ)	.
.	.	(>16gg#LL	.
.	.	16g#	.
.	.	16gg#	.
*Xped	*	*	*
.	.	16gg#	.
*ped	*	*	*
[>8c# [>8G# [<8E	.	16ggg#	.
.	.	16gg#JJ)	.
=168	=168	=168	=168
*^	*	*	*
4.ryy	4c#] 4G#] 4E]	.	(>16gg#LL	.
.	.	.	16g#	.
.	.	.	16gg#	.
*Xped	*	*	*	*
.	.	.	16gg#	.
*ped	*	*	*	*
.	8B 8F# 8D#	.	16ggg#	.
.	.	.	16gg#JJ)	.
8AL	4.C#	.	(>16gg#LL	.
.	.	.	16g#	.
8E	.	.	16gg#	.
.	.	.	16gg#	.
8F#J	.	.	16ggg#	.
.	.	.	16gg#JJ)	.
*v	*v	*	*	*
!!LO:LB:g=original
=169	=169	=169	=169
*	*	*	*^
*ped	*	*	*	*
!LO:TX:a:t=P:problem:brak końcówki łuku	!	!	!	!
!LO:TX:t=P:problem:oznaczenie pedalizacji przed nutami	!	!	!	!
8GG# 8GGG#)	.	(>16gg#LL	.	.
.	.	16g#	.	.
8r	.	16gg#	.	.
.	.	16gg#	.	.
!	!	!	!	!LO:HP:b=2
(>4.G# 4.D# 4.BB#X	.	16ggg#	.	<
.	.	16gg#JJ)	.	.
.	.	(>16gg#LL	.	.
.	.	16g#	.	.
.	.	16gg#	.	.
.	.	16gg#	.	.
*Xped	*	*	*	*
[>8A#X [>8E [<8C#	.	16eee	.	.
.	.	16gg#JJ)	.	.
=170	=170	=170	=170	=170
*ped	*	*	*	*
4A#] 4E] 4C#]	.	(>16gg#LL	.	.
.	.	16g#	.	.
.	.	16gg#	.	.
.	.	16gg#	.	.
4.c# 4.G# 4.E	.	16ggg#	.	.
.	.	16gg#JJ)	.	[
.	.	(>16gg#LL	.	.
.	.	16g#	.	.
.	.	16gg#	.	.
*Xped	*	*	*	*
.	.	16gg#	.	.
8B#X 8G# 8D#	.	16ggg#	.	.
.	.	16gg#JJ)	.	.
*	*	*	*v	*v
=171	=171	=171	=171
*ped	*	*	*
4GG#	.	(>16gg#LL	.
.	.	16g#	.
.	.	16gg#	.
.	.	16gg#	.
*Xped	*	*	*
8A#X 8G# 8C#	.	16ggg#	.
.	.	16gg#JJ)	.
*ped	*	*	*
4GG#	.	(>16gg#LL	.
.	.	16g#	.
.	.	16gg#	.
.	.	16gg#	.
8B#X 8G# 8D#	.	16ggg#	.
.	.	16gg#JJ)	[[
!!LO:PB:g=original
=172	=172	=172	=172
4GG#	.	(>16gg#LL	.
.	.	16g#	.
.	.	16gg#	.
*Xped	*	*	*
.	.	16gg#	.
*ped	*	*	*
8e 8B#X 8G# 8F#	.	16ggg#	.
.	.	16gg#JJ)	.
4GG# 4GGG#	.	(>16gg#LL	.
.	.	16g#	.
.	.	16gg#	.
.	.	16gg#	.
*Xped	*	*	*
8d# 8B#X 8G# 8F#)	.	16ggg#	.
.	.	16gg#JJ)	.
=173	=173	=173	=173
*	*	*	*^
*ped	*	*	*	*
!	!	!	!LO:HP:vg=1	!
!	!	!	!	!LO:DY:rj
8C#L 8CC#\	.	(>16gg#LL 16ee 16cc#	>	ff
.	.	16g#	.	.
8r	.	16gg# 16ee 16cc#	.	.
.	.	16gg#	]	.
8c#J 8G# 8E	.	16ggg# 16eee 16ccc#	.	.
.	.	16gg#JJ)	.	.
8C#L 8CC#	.	(>16gg#LL 16ee 16cc#	>	.
.	.	16g#	.	.
8rD	.	16gg#	.	.
.	.	16ccc#	]]	.
*clefG2	*	*	*	*
*	*	*8va	*	*
8cc#J 8g# 8e 8c#	.	16cccc# 16eee	.	.
*Xped	*	*	*	*
.	.	16ccc#JJ)	.	.
*clefF4	*	*	*	*
*	*	*	*v	*v
=174	=174	=174	=174
*ped	*	*	*
8c#L 8C#	.	(>16cccc#LL 16aaa	.
.	.	16ccc#)	.
8r	.	(>16bbb 16ggg#	.
.	.	16bb)	.
*clefG2	*	*	*
8cc#J 8a 8f# 8c#	.	(>16aaa 16fff#	.
*Xped	*	*	*
.	.	16aaJJ)	.
*clefF4	*	*	*
*ped	*	*	*
8c#L 8C#\	.	(>16ggg#LL 16eee	.
.	.	16gg#)	.
8r	.	(>16eee 16ccc#	.
.	.	16ee)	.
*clefG2	*	*	*
8g#J 8e 8c# 8G#	.	(>16fff# 16ddd#	.
*Xped	*	*	*
.	.	16ff#JJ)	.
*	*	*X8va	*
*clefF4	*	*	*
!!LO:LB:g=original
=175	=175	=175	=175
*ped	*	*	*
!LO:TX:b:t=P:problem:znak pedalizacji przed nutą	!	!	!
4C# 4CC#	.	(>16ggg#LL 16eee 16ccc#	.
.	.	16gg#	.
.	.	.	>
.	.	16gg# 16ee 16cc#	.
.	.	16g#	.
*Xped	*	*	*
8e 8c# 8G# 8E	.	16gg# 16ee	.
.	.	16gg#JJ)	]
*ped	*	*	*
4Cn 4CCn	.	(>16ggg#LL 16eee	.
.	.	16gg#	.
.	.	16gg# 16ee	>
.	.	16g#	.
8e 8cn 8G# 8E	.	16gg# 16ee	.
*Xped	*	*	*
.	.	16gg#JJ)	]
*ped	*	*	*
=176	=176	=176	=176
8BB 8BBB	.	(>16ggg#LL 16eee	>
.	.	16gg#	]
16r	.	16gg# 16ee	.
16c#KL 16E 16C#	.	16g#	.
*Xped	*	*	*
8BJ 8G# 8BB	.	16aa 16ee	.
*ped	*	*	*
.	.	16aJJ	.
8BB 8BBB	.	16bbLL 16gg#	.
.	.	16b	.
8BL 8G# 8BB	.	16ee 16g#	.
.	.	16e	.
8BJ 8A 8F# 8BB	.	16ff# 16a	.
*Xped	*	*	*
.	.	16f#JJ)	.
*ped	*	*	*
=177	=177	=177	=177
4E 4EE	.	(>16gg#LL 16ee 16b	>
.	.	16g#	.
.	.	16gg# 16ee 16b	.
.	.	16gg#	.
*Xped	*	*	*
8e 8B 8G# 8E	.	16ggg# 16eee 16bb	]
*ped	*	*	*
.	.	16gg#JJ)	.
4D# 4DD#	.	(>16gg#LL 16ee 16b#X	>
.	.	16g#	.
.	.	16gg# 16ee 16b#	.
.	.	16gg#	.
8e 8B#X 8G# 8E	.	16ggg# 16eee 16bb#X	]
*Xped	*	*	*
.	.	16gg#JJ)	.
!!LO:LB:g=original
=178	=178	=178	=178
*ped	*	*	*
!LO:TX:t=P:problem:oznaczenie pedalizacji przed nutami	!	!	!
8C#L 8CC#	.	(>16gg#LL 16ee 16cc#	>
.	.	16g#	]
8rD	.	16gg# 16ee 16cc#	.
.	.	16gg#)	.
*clefG2	*	*	*
*	*	*8va	*
8cc#:J 8e: 8G#:	.	(>16cccc# 16eee	.
*Xped	*	*	*
.	.	16ccc#JJ	.
*clefF4	*	*	*
*ped	*	*	*
8c#L 8C#\	.	16cccc#LL 16aaa	>
.	.	16ccc#	]
8r	.	16bbb 16ggg#	>
.	.	16bb	]
*clefG2	*	*	*
8cc#J 8f# 8c# 8A	.	16aaa 16fff#	>
*Xped	*	*	*
.	.	16aaJJ	]
*clefF4	*	*	*
=179	=179	=179	=179
*ped	*	*	*
8c#L 8C#	.	16ggg#LL 16eee	.
.	.	16gg#	.
*Xped	*	*	*
*clefG2	*	*	*
8cc# 8e	.	16ggg# 16eee	.
.	.	16gg#	.
*clefF4	*	*	*
*ped	*	*	*
8f#J 8F#	.	16aaa#X 16eee	.
*Xped	*	*	*
.	.	16aa#XJJ	.
*ped	*	*	*
8BL 8BB	.	16bbbLL 16eee	.
.	.	16bb	.
*clefG2	*	*	*
8b 8d#	.	16fff# 16ddd#	.
*Xped	*	*	*
.	.	16ff#	.
*clefF4	*	*	*
8eJ 8E	.	16ggg# 16dddn	.
.	.	16gg#JJ	.
=180	=180	=180	=180
*ped	*	*	*
8AL 8AA	.	16aaaLL 16dddn	.
.	.	16aa	.
8a 8c#	.	16eee 16ccc#	.
.	.	16ee	.
*Xped	*	*	*
8d#XJ 8D#X	.	16fff# 16ccc#	.
.	.	16ff#JJ	.
*ped	*	*	*
8G#L 8GG#	.	16ggg#LL 16ccc#\	.
.	.	16gg#	.
8g# 8B#X	.	16ddd#X 16bb#X	.
.	.	16dd#	.
8c#J 8C#	.	16eee#X 16bbn	.
.	.	16ee#XJJ	.
*	*	*X8va	*
!!LO:LB:g=original
=181	=181	=181	=181
*ped	*	*	*
8F#L 8FF#	.	16fff#LL 16bb	.
.	.	16ff#	.
8f# 8A#X	.	16ccc# 16aa#X	.
.	.	16cc#	.
*Xped	*	*	*
8BJ 8BB	.	16ddd# 16aan	.
.	.	16dd#JJ	.
*ped	*	*	*
8EL 8EE	.	16eeeLL 16aa	.
.	.	16ee	.
8e 8G#	.	16bb 16gg#	.
.	.	16b	.
*Xped	*	*	*
8A#XJ 8AA#X	.	16ccc# 16gg#	.
.	.	16cc#JJ	.
=182	=182	=182	=182
*ped	*	*	*
8D#L 8DD#	.	16ddd#LL 16gg#	.
.	.	16dd#	.
8d# 8F##X	.	16aa#X 16ff##X	.
.	.	16a#X	.
*Xped	*	*	*
8G#J 8GG#	.	16bb#X 16ff#X	.
.	.	16b#XJJ	.
*ped	*	*	*
8C#L 8CC#\	.	16ccc#LL 16ff#	.
.	.	16cc#	.
8c# 8E#X	.	16gg# 16ee#X	.
.	.	16g#	.
*Xped	*	*	*
8F##J 8FF##y	.	16aa# 16een	.
.	.	16a#JJ)	.
=183	=183	=183	=183
*	*	*	*^
8BB 8BBB	.	8bb 8dd# 8b	fz	.
!	!	!	!	!LO:DY:a
4r	.	8r	.	f
.	.	4B^>	.	.
(<16AAA#XLL	.	.	>	.
16BBB	.	.	.	.
16BB	.	8r	.	.
!	!	!	!	!LO:DY:a
16BBB	.	.	.	fz
16BB	.	[<8B^>	.	.
16BBBJJ	.	.	]]	.
*	*	*	*v	*v
!!LO:LB:g=original
=184	=184	=184	=184
16AAA#XLL	.	8B]	.
16BBB	.	.	.
16BB	.	8r	.
!	!	!	!LO:DY:a
16BBB	.	.	fz
16BB	.	4B^>	.
16BBBJJ	.	.	.
16AAA#LL	.	.	.
16BBB	.	.	.
16BB	.	8r	.
!	!	!	!LO:DY:a
16BBB	.	.	fz
!	!	!LO:TX:b:t=P:cross-measure beam:problem	!
16BB	.	[<8B^>	.
16BBBJJ	.	.	.
=185	=185	=185	=185
16AAA#XLL	.	8B]	.
16BBB	.	.	.
16BB	.	8r	.
16BBB	.	.	.
16BB	.	(<8g#L 8d# 8A	.
16BBBJJ	.	.	.
16AAA#LL	.	8BJ)	.
16BBB	.	.	.
16BB	.	8r	.
16BBB	.	.	.
!	!	!LO:TX:b:t=P:cross-measure beam:problem	!
16BB	.	(<8f# 8d# 8A	.
16BBBJJ	.	.	.
=186	=186	=186	=186
*	*	*^	*
16AAA#XLL	.	8B)	4.ryy	.
16BBB	.	.	.	.
16BB	.	8r	.	.
16BBB	.	.	.	.
16BB	.	(>8e [<8G#	.	>
16BBBJJ	.	.	.	.
.	.	8qf#/	.	.
16AAA#LL	.	8eL 8G#	4.G#]	.
16BBB	.	.	.	.
16BB	.	8d#	.	.
16BBB	.	.	.	.
!	!	!LO:TX:a:t=P:problem: w źródle częściowy brak ligatury dopisany ołówkiem pod nutą	!	!
16BB	.	[>8c#J	.	]]
16BBBJJ)	.	.	.	.
!!LO:PB:g=original
=187	=187	=187	=187	=187
16AAA#XLL\	.	4c#] 4Gn<	4ryy	.
16BBB	.	.	.	.
16BB	.	.	.	.
16BBB	.	.	.	.
16BB	.	4.d#	8E<	.
!	!	!LO:TX:a:t=smorz.	!	!
16BBBJJ	.	.	.	.
16AAA#LL\	.	.	4G<	.
16BBB	.	.	.	.
16BB	.	.	.	.
16BBB	.	.	.	.
16BB	.	[<8c# 8E<	8ryy	.
16BBBJJ	.	.	.	.
=188	=188	=188	=188	=188
16AAA#XLL\	.	4c#] 4GnX<	[>4.Gn<	.
16BBB	.	.	.	.
16BB	.	.	.	.
16BBB	.	.	.	.
16BB	.	[<8B	.	.
16BBBJJ	.	.	.	.
16AAA#LL\	.	4.B_<	8Gn<L]	.
16BBB	.	.	.	.
16BB	.	.	8A< 8F#<	.
16BBB	.	.	.	.
16BB	.	.	8G<J 8E<	.
16BBBJJ	.	.	.	.
*	*	*v	*v	*
*ped	*	*	*
=189	=189	=189	=189
*^	*	*	*
8F# 8BB	16BBBLL	.	4B]	.
.	16FF#	.	.	.
4ryy	16F#	.	.	.
!	!	!	!LO:TX:a:t=sotto voce.	!
.	16FF#	.	.	.
.	16F#	.	8c#	.
*Xped	*	*	*	*
.	16FF#JJ	.	.	.
*ped	*	*	*	*
4.ryy	16BBBLL\	.	8d#L 8A	.
.	16AA	.	.	.
.	16A	.	8e	.
.	16AA	.	.	.
.	16A	.	8f#J	.
*Xped	*	*	*	*
.	16AAJJ	.	.	.
*v	*v	*	*	*
!!LO:LB:g=original
=190	=190	=190	=190
*	*	*^	*
(>16BBBLL\	.	4g# 4e	4G#<	<
16GG#	.	.	.	.
16G#	.	.	.	.
16GG#	.	.	.	.
16G#	.	8cc#/	8ryy	.
16GG#JJ)	.	.	.	.
.	.	(>8qA#X</	.	.
!	!	!LO:S:s=1:note:problem:note-level slur	!	!
(>16BBBLL\	.	[>4.cc#:) [>4.e: [>4.A#y<:	4.ryy	[[
16GGn	.	.	.	.
16Gn	.	.	.	.
16GG	.	.	.	.
16G	.	.	.	.
16GGJJ)	.	.	.	.
*	*	*v	*v	*
=191	=191	=191	=191
(>16BBBLL	.	4cc#] 4e] 4A#<]	.
16GGn	.	.	.
16Gn	.	.	.
16GG	.	.	.
16G	.	4.b 4.e 4.B	.
16GGJJ)	.	.	.
(>16BBBLL\	.	.	.
16GG	.	.	.
16G	.	.	.
16GG	.	.	.
16G	.	8a#X 8e 8c#	.
16GGJJ)	.	.	.
=192	=192	=192	=192
*	*	*^	*
(>16BBBLL\	.	4cc# 4c#	4.d#	>
16FF#	.	.	.	.
16F#	.	.	.	.
16E#X	.	.	.	.
16En	.	8b 8B)	.	.
16D#JJ	.	.	.	.
16DnLL\	.	4r	4.ryy	]
16C#	.	.	.	.
16Cn	.	.	.	.
16BB	.	.	.	.
!	!	!LO:TX:b:t=P:cross-measure beam:problem	!	!
16BB-X	.	[<8cn^>	.	.
16AAJJ	.	.	.	.
*	*	*v	*v	*
!!LO:LB:g=original
=193	=193	=193	=193
16AA-XLL	.	8cnX]	.
16GGn	.	.	.
16FF#	.	8r	.
16FFn	.	.	.
16EE	.	(<8aL 8B-X	.
16EE-XJJ	.	.	.
16DDnLL	.	8cJ)	.
16DD-X	.	.	.
16CCn	.	8r	.
16BBBn	.	.	.
!	!	!LO:TX:b:t=P:cross-measure beam:problem	!
16DDn	.	(<8gn 8B-	.
16CCJJ	.	.	.
=194||	=194||	=194||	=194||
*k[b-e-a-d-]	*	*k[b-e-a-d-]	*
*	*	*^	*
*ped	*	*	*	*
!LO:TX:b:t=P:problem:znak pedalizacji przed nutą	!	!	!	!
16BBBnLL\	.	8c)	4.ryy	.
16CC	.	.	.	.
16C	.	8r	.	.
16CC	.	.	.	.
16C	.	(>8f [<8An	.	.
16CCJJ	.	.	.	.
.	.	8qg/	.	.
16BBBLL\	.	8fL	4.A]	.
16CC	.	.	.	.
16C	.	8en	.	.
16CC	.	.	.	.
16C	.	[>8dnJ	.	.
*Xped	*	*	*	*
16CCJJ)	.	.	.	.
=195	=195	=195	=195	=195
*ped	*	*	*	*
16BBBnLL\	.	4dnX] 4A-X<	4ryy	.
16CC	.	.	.	.
16C	.	.	.	.
16CC	.	.	.	.
16C	.	4.e- 4.c	8F<	.
*Xped	*	*	*	*
16CCJJ	.	.	.	.
*ped	*	*	*	*
16BBBnLL\	.	.	4A-<	.
16CC	.	.	.	.
16C	.	.	.	.
16CC	.	.	.	.
!	!	!LO:TX:a:t=P:problem:brak początku ligatur	!	!
16C	.	[>8dn [<8Bn 8F<	8ryy	.
*Xped	*	*	*	*
16CCJJ	.	.	.	.
!!LO:LB:g=original
=196	=196	=196	=196	=196
*ped	*	*	*	*
(>16BBBnLL	.	4dnX] 4BnX] 4A-<	[>4.A-<	.
16CC	.	.	.	.
16C	.	.	.	.
16CC	.	.	.	.
16C	.	[>2c)	.	.
*Xped	*	*	*	*
16CCJJ)	.	.	.	.
*ped	*	*	*	*
(>16BBBnLL	.	.	(>8A-<L]	.
16CC	.	.	.	.
16C	.	.	8B-< 8G<	.
16CC	.	.	.	.
16C	.	.	8A-<J 8F<	.
*Xped	*	*	*	*
16CCJJ)	.	.	.	.
=197	=197	=197	=197	=197
*ped	*	*	*	*
!	!	!	!LO:TX:t=P:problem:łuk od 8A-< do 8G< 8C< pod górną pięciolinią	!
(>16CCLL	.	(>4c]	8G< 8C<)	.
16GG	.	.	.	.
16G	.	.	4ryy	.
16GG	.	.	.	.
16G	.	8dn	.	.
*Xped	*	*	*	*
16GGJJ	.	.	.	.
*ped	*	*	*	*
16CCLL\	.	8enL	4.d-X	<
16BB-	.	.	.	.
16B-	.	8f	.	.
16BB-	.	.	.	.
16B-	.	8gJ	.	.
*Xped	*	*	*	*
16BB-JJ	.	.	.	[[
=198	=198	=198	=198	=198
*ped	*	*	*	*
16CCLL\	.	4an	4.f#X 4.c	.
16AAn	.	.	.	.
16An	.	.	.	.
16AA	.	.	.	.
16A	.	8ddn	.	.
*Xped	*	*	*	*
16AAJJ	.	.	.	.
.	.	(>8qBn/	.	.
*ped	*	*	*	*
!	!	!LO:S:s=1:note:problem:note-level slur	!	!
16CCLL\	.	[>4.dd) [>4.fn [<4.Bny	4.ryy	.
16AA-X	.	.	.	.
16A-X	.	.	.	.
16AA-	.	.	.	.
16A-	.	.	.	.
16AA-JJ	.	.	.	.
*	*	*v	*v	*
!!LO:LB:g=original
=199	=199	=199	=199
16CCLL\	.	4ddnX] 4f] 4BnX]	>
16AA-X	.	.	.
16A-X	.	.	.
*Xped	*	*	*
16AA-	.	.	.
16A-	.	4.cc 4.f 4.c	.
16AA-JJ	.	.	.
*ped	*	*	*
16CCLL\	.	.	.
16AA-	.	.	.
16A-	.	.	.
*Xped	*	*	*
16AA-	.	.	.
*ped	*	*	*
16A-	.	8bn 8f 8d-X	.
16AA-JJ	.	.	.
*Xped	*	*	*
=200	=200	=200	=200
*ped	*	*	*
16CCLL\	.	8bnL 8f 8c	.
16GG	.	.	.
16G	.	8ccJ 8en	.
16F#X	.	.	.
*Xped	*	*	*
16Fn	.	8r)	.
16EnJJ	.	.	.
16E-XLL\	.	4r	]
16Dni	.	.	.
16D-X	.	.	.
16C	.	.	.
!	!	!LO:TX:a:t=P:cross-measure beam:problem	!
16BBn	.	[<8dn^>	.
16BB-XJJ	.	.	.
=201	=201	=201	=201
16AAnLL	.	8dnX]	.
16GG-X	.	.	.
16GG-	.	8r	.
16FF#X	.	.	.
16FFn	.	(<8b-L 8f#X 8c	.
16EEnJJ	.	.	.
16EE-XLL	.	8dJ)	.
16DDn	.	.	.
16CC#X	.	8r	.
16DD	.	.	.
!	!	!LO:TX:a:t=P:cross-measure beam:problem	!
16EE-	.	(<8an 8f# 8c	.
16DDJJ)	.	.	.
!!LO:PB:g=original
=202	=202	=202	=202
*ped	*	*	*
(>16CC#XLL	.	&(<8dn)	.
16DDn	.	.	.
16Dn	.	8r	.
16DD	.	.	.
16D	.	&&(>8g 8B-	.
16DDJJ	.	.	.
.	.	8qan/	.
16CC#LL	.	8gL 8d] 8B-&)	.
16DDn	.	.	.
16Dn	.	8f 8c 8An	.
16DD	.	.	.
16D	.	8e-J 8B- 8G	.
*Xped	*	*	*
16DDJJ	.	.	.
=203	=203	=203	=203
*ped	*	*	*
16CC#XLL	.	4dn 4cn 4F#X	.
!	!	!	!LO:HP:a
16DDn	.	.	<
16Dn	.	.	.
16DD	.	.	.
16D	.	8en [>8c 8G	.
16DDJJ	.	.	.
16CC#LL	.	8f#XL 8c] 8An	.
16DD	.	.	.
16Dn	.	8g 8d 8B-	.
16DD	.	.	.
16D	.	8anJ 8f# 8c	.
*Xped	*	*	*
16DDJJ	.	.	.
=204	=204	=204	=204
*ped	*	*	*
16CC#XLL\	.	4b- 4g 4B-	.
16DDn	.	.	.
16Dn	.	.	.
16DD	.	.	.
16D	.	8ee- 8cc 8e-	[
*Xped	*	*	*
16DDJJ	.	.	.
*ped	*	*	*
16CC#LL\	.	4ddn 4b- 4dn&&)	.
!	!	!LO:TX:t=cres _:problem:dynamics with extention lines	!
!	!	!	!LO:HP:b:t=cres:ext=ud
16DDn	.	.	<
16Dn	.	.	.
16DD	.	.	.
*Xped	*	*	*
16E-	.	(>[>8dd-X [>8g [<8d-X	.
16EE-JJ	.	.	.
!!LO:LB:g=original
=205	=205	=205	=205
*^	*	*	*
*	*	*	*^	*
*ped	*	*	*	*	*
!LO:TX:a:t=P:problem:do nuty 4E- dochodzi łuk przypominający ligaturę lecz nie mający początku	!	!	!	!	!
4E-]	16DDnLL	.	4dd-X] 4g] 4d-X]	4.e-	.
.	16EE-	.	.	.	.
.	16E-	.	.	.	.
.	16EE-	.	.	.	.
8ryy	16E-	.	4.cc 4.g 4.d-	.	.
.	16EE-JJ	.	.	.	.
4.ryy	16DDLL\	.	.	4.e-	.
.	16EE-	.	.	.	.
.	16E-	.	.	.	.
.	16EE-	.	.	.	.
.	16E-	.	[>8b- 8g [<8d-	.	.
*Xped	*	*	*	*	*
.	16EE-JJ	.	.	.	.
*v	*v	*	*	*	*
=206	=206	=206	=206	=206
*ped	*	*	*	*
16DDnLL\	.	4b-] 4d-]	N[<4.e-	.
16EE-	.	.	.	.
16E-	.	.	.	.
16EE-	.	.	.	.
16E-	.	8a- 8c	.	.
16EE-JJ	.	.	.	.
.	.	8qb-/	.	.
16DDLL\	.	8a-L 8e-N] 8c	4.ryy	.
16EE-	.	.	.	.
16E-	.	8.g 8.d- 8.B-	.	.
16EE-	.	.	.	.
16E-	.	.	.	.
*Xped	*	*	*	*
16EE-JJ)	.	16fJk 16d- 16A-	.	.
*	*	*v	*v	*
=207	=207	=207	=207
*ped	*	*	*
16DDnLL\	.	4e- 4d- 4G	.
16EE-	.	.	.
16E-	.	.	.
16EE-	.	.	.
16E-	.	(<8f 8d- 8A-	.
*Xped	*	*	*
16EE-JJ	.	.	.
*ped	*	*	*
16DDLL\	.	8gL 8e- 8d-) 8B-	.
16EE-	.	.	.
16E-	.	8.a- 8.e- 8.c	.
16EE-	.	.	.
16E-	.	.	.
*Xped	*	*	*
16EE-JJ	.	16b-Jk 16g 16e- 16d-	.
!!LO:LB:g=original
=208	=208	=208	=208
*ped	*	*	*
16DDnLL	.	4cc 4a- 4c\	.
16EE-	.	.	.
16E-	.	.	.
16EE-	.	.	.
16E-	.	8ff 8dd- 8f	.
*Xped	*	*	*
16EE-JJ	.	.	.
*ped	*	*	*
16DDLL	.	4ee- 4cc 4e-)\	.
16EE-	.	.	.
16E-	.	.	.
16EE-	.	.	.
16E-	.	8ddn^> 8cc-X 8dn\	.
16EE-JJ	.	.	.
=209	=209	=209	=209
!LO:TX:t=P:mixed beam:problem	!	!	!
16EEE-LL/	.	(>4dd 4cc- 4d\	.
16A-\	.	.	.
16B-\	.	.	.
16c-X\	.	.	.
16B-\	.	8ee- 8ccn 8e-\	.
*Xped	*	*	*
16A-JJ\	.	.	.
16E-LL	.	8ff-XL 8dd-X 8f-X	.
16A-	.	.	.
16B-	.	8ffn 8ddn 8fn	.
16c-	.	.	.
16B-	.	8gg-XJ 8ee- 8g-X	.
16A-JJ	.	.	.
*ped	*	*	*
=210	=210	=210	=210
16EE-LL	.	4ggn 4een 4gn	.
16A-	.	.	.
16B-	.	.	.
16c-X	.	.	.
16B-	.	8aa- 8ff 8a-	.
*Xped	*	*	*
16A-JJ	.	.	.
16E-LL	.	8bb--L 8gg-X 8b--	.
16A-	.	.	.
16B-	.	8.bb-X 8.ggn 8.b-X	.
16c-	.	.	.
16B-	.	.	.
16A-JJ	.	16ccc-XJk 16aa-X 16cc-X	.
!!LO:LB:g=original
=211	=211	=211	=211
*ped	*	*	*
16E-LL 16EE-	.	8ccc-X 8aa- 8cc-X)	.
16A-	.	.	.
16B-	.	(>8ffL 4dd 8f	.
16c-X	.	.	.
16B-	.	8gg-XJ 8ee- 8g-X	.
*Xped	*	*	*
16A-JJ	.	.	.
16E-LL	.	8ggnL 8een 8gn	.
16A-	.	.	.
16B-	.	8aa- 8ff 8a-	.
16c-	.	.	.
16B-	.	8bb--J 8gg-X 8b--	.
16A-JJ	.	.	.
*ped	*	*	*
=212	=212	=212	=212
16E-LL 16EE-	.	8bb-XL 8ggn 8b-X	.
16A-	.	.	.
16B-	.	8ccc-X 8aa-X 8cc-X	.
16c-X	.	.	.
16B-X	.	8cccnJ 8aa- 8ccn	.
*Xped	*	*	*
16A-JJ	.	.	.
*ped	*	*	*
16dnLL 16E-	.	8ccc#XL 8aa- 8cc#X	.
16A-	.	.	.
16B-	.	8dddn 8aa- 8ddn	.
16c-	.	.	.
*Xped	*	*	*
16B-	.	8fffJ 8aa- 8ff	.
16A-JJ	.	.	[[
!!LO:LB:g=original
=213	=213	=213	=213
*	*	*8va	*
8E-L 8EE-	.	8eee-L 8ee-	.
8e- 8d- 8B- 8G	.	8ddd- 8bb- 8gg	.
8gJ 8d- 8B-	.	8fffJ 8ff	.
*clefG2	*	*	*
8b-L 8g 8e- 8d-	.	8gggL 8eee- 8ddd- 8gg	.
8g 8e- 8d- 8B-	.	8aaa- 8aa-	.
8e-J 8d- 8B- 8G	.	8bbb-J 8bb-	.
*clefF4	*	*	*
*ped	*	*	*
=214	=214	=214	=214
8AA-L 8AAA-	.	8ccccL 8ccc	.
*clefG2	*	*	*
(>8e- 8A-	.	8aaa- 8eee-	.
8a-J 8c	.	8ffffJ 8fff	.
8ccL 8e-	.	8eeee-L 8eee-	.
8ee- 8a-	.	8cccc 8aaa-	.
*Xped	*	*	*
8aa-J 8cc)	.	8ddddnJ 8dddn	.
*clefF4	*	*	*
=215	=215	=215	=215
*ped	*	*	*
8E-L 8EE-	.	8dddd-XL 8ggg 8ddd-X	.
8d- 8E-	.	8cccc 8ccc	.
8e-J 8G	.	8bbb-J 8bb-	.
.	.	8qcccc/	.
8gL 8d-	.	8bbb-L 8ggg] 8bb-	.
8e- 8G	.	8aaan 8fff#X 8aan	.
*Xped	*	*	*
8d-J 8E-	.	8bbb-J 8ggg 8bb-	.
=216	=216	=216	=216
*ped	*	*	*
8A-L 8AA-	.	8ccccL 8aaa- 8ccc	.
8c 8E-	.	8aaa- 8aa-	.
8e-J 8A-	.	8fffnJ 8ff	.
*	*	*X8va	*
!	!	!LO:TX:a:t=loco.	!
8cL 8E-	.	8eee-L 8ee-	.
8e- 8A-	.	8ccc 8cc	.
16rF	.	16r	.
*Xped	*	*	*
16cJk 16C	.	16ffJk 16f	.
!!LO:PB:g=original
=217	=217	=217	=217
*	*	*^	*
*	*	*	*	*^
8cL 8C	.	4ee-)	8ee- 8e-L	<	.
!	!	!	!	!	!LO:HP:b=2
.	.	.	.	.	>
8B- 8BB-	.	.	8dd- 8g	.	.
8A-J 8AA-	.	8ryy	(>8ffJ 8dd- 8f	.	.
8GL 8GG\	.	4.ryy	8ggL 8ee- 8dd- 8g	.	.
8F 8FF	.	.	8aa- 8ee- 8dd- 8a-	.	.
8E-J 8EE-	.	.	8bb-J 8ee- 8dd- 8b-)	[	]
*	*	*	*	*v	*v
*ped	*	*	*	*
=218	=218	=218	=218	=218
!	!	!	!	!LO:HP:b=2
8AA-L 8AAA-	.	4ccc	(>8ccc 8ccL	<
8c 8E-	.	.	8aa- 8ee-	.
8e-J 8A-	.	8ryy	8fffJ 8ff	[[
4a- 4c	.	4eee-	8eee- 8ee-L	.
*Xped	*	*	*	*
.	.	.	8ccc 8aa-	.
8r	.	8ryy	8dddnJ 8ddn)	.
*ped	*	*	*	*
=219	=219	=219	=219	=219
!	!	!	!	!LO:HP:b=2
8E-L 8EE-	.	4.gg	(>8ddd-XL 8dd-X	<
(>8e- 8E-	.	.	8ccc 8cc	.
8enJ 8G	.	.	8bb-J 8b-	[
.	.	.	8qccc/	.
8fL 8d-	.	4.ryy	8bb-L 8gg 8b-	.
*Xped	*	*	*	*
8e 8G	.	.	8aan 8ff#X 8an	.
8d-J 8E-)	.	.	8bb-J 8gg 8b-	.
*	*	*v	*v	*
!!LO:LB:g=original
=220	=220	=220	=220
*ped	*	*	*
!	!	!	!LO:HP:b=2
(>8A-L 8AA-	.	8bbnL 8gg 8bn	<
8c 8E-	.	8ccc 8aa- 8cc	.
8e-J 8A-	.	8fffJ 8ff	.
4a- 4c)	.	8eee-L 8ee-	[
.	.	8ccc 8aa-	.
8r	.	8dddnJ 8ddn	.
*ped	*	*	*
=221	=221	=221	=221
*	*	*^	*
!	!	!	!	!LO:HP:b=2
(>8E-L 8EE-	.	4.gg	8ddd-XL 8dd-X	<
8e- 8E-	.	.	8ccc 8cc	.
8enJ 8G	.	.	8bb-J 8b-	[
.	.	.	8qccc/	.
8fL 8d-	.	4.ryy	8bb-L 8gg 8b-	.
8e 8G	.	.	8aan 8ff#X 8an	.
*Xped	*	*	*	*
8d-J 8Eny)	.	.	8bb-J 8gg 8b-	.
*	*	*v	*v	*
=222	=222	=222	=222
*ped	*	*	*
(>8DnL 8DDn	.	8bb-L 8gg 8b-	.
8c-X 8D	.	8ccc-X 8aa-X 8cc-X)	.
8fJ 8A-	.	16r	.
*	*	*8va	*
.	.	16aaa-Jk 16ccc- 16aa-	.
8a-L 8c-	.	8aaa-L 8ccc- 8aa-	.
8f 8A-	.	(>8aaa- 8ccc- 8aa-	.
*Xped	*	*	*
8c-J 8D)	.	8aaa-J 8ccc- 8aa-	.
!!LO:LB:g=original
=223	=223	=223	=223
*ped	*	*	*
(>8D-XL 8DD-X	.	8aaa-L 8ccc-X 8aa-	.
!	!	!LO:TX:a:t=P:problem:łuk nie ma zakończenia	!
8B- 8D-	.	8ggg 8bb- 8gg)	.
*	*	*X8va	*
8enJ 8G	.	16r	.
!	!	!LO:TX:a:t=loco	!
.	.	(>16bb-Jk 16gg 16b-	.
8B-L 8D-	.	8aanL 8ff#X 8an	.
*Xped	*	*	*
8eJ 8G)	.	8bb- 8gg 8b-)	.
8r	.	16rdd	.
.	.	16gggJk 16bb- 16gg	.
=224	=224	=224	=224
*ped	*	*	*
(>8CL 8CC	.	8gggL 8bb- 8gg	.
8An 8C	.	8fff#X 8aan 8ff#X	.
8e-J 8F#X	.	16rdd	.
.	.	(>16aaJk 16ff# 16an	.
8AL 8C	.	8gg#XL 8ee#X 8g#X	.
*Xped	*	*	*
8e-J 8F#)	.	8aa 8ff# 8a)	.
8r	.	16ra	.
.	.	16aaanyJk 16aa 16ff#	.
*ped	*	*	*
=225	=225	=225	=225
8BBn 8BBBn	.	(>8fff#XL 8aan 8ff#X	.
16r	.	16rb	.
16f#ykL 16Bn 16F#X	.	16aak 16dd#X 16bn 16any	.
8f#J 8B 8F#	.	8aaJ 8dd# 8b 8a	.
8f#L 8B 8F#	.	8aaL 8dd# 8b 8a	.
8f# 8B 8F#	.	8bbn 8dd# 8b 8a	.
*Xped	*	*	*
8f#J 8B 8F#	.	8ff#J 8dd# 8b 8a	.
!!LO:LB:g=original
=226	=226	=226	=226
*ped	*	*	*
8EEnL	.	8ff#XL 8dd#X 8bn 8an	.
*Xped	*	*	*
8en 8Bn 8En	.	8gg#X 8een 8g#X	.
*ped	*	*	*
8eJ 8B 8E	.	8gg#J 8dd#X 8g#	.
*Xped	*	*	*
.	.	.	.
8eL 8B 8E	.	8gg#L 8ddn 8g#	.
8e 8A#X 8E	.	8aa#X 8dd 8a#X	.
8eJ 8G#X 8E	.	8bbnJ 8dd 8b	.
=227	=227	=227	=227
*ped	*	*	*
8E-X 8EE-X	.	8ccc 8aa-X 8ee-X 8cc)	.
!	!	!LO:TX:t=cres _:problem:dynamics with extention lines	!
!	!	!	!LO:HP:b:t=cres:ext=ud
8cL 8E-	.	(>8ee-L 8cc 8a- 8e-\	<
8cJ 8E-	.	8ee-J 8cc 8a- 8e-	.
!	!	!LO:TX:a:t=stretto:dur=4qe:ext=ud:problem:text with extention lines	!
8cL 8E-	.	8ee-L 8cc 8a- 8e-\	.
8c 8E-X	.	8een 8cc 8a- 8en	.
8cJ 8E-	.	8eeJ 8cc 8a- 8e	.
=228	=228	=228	=228
*Xped	*	*	*
8cL 8E-X	.	8eenL 8cc 8a- 8en	.
*ped	*	*	*
8e- 8c 8E-	.	8ff 8cc 8an 8f	.
8e-J 8c 8E-	.	8ffJ 8cc 8a 8f	.
8e-L 8c 8E-	.	8ffL 8cc 8a 8f	.
*Xped	*	*	*
8e- 8c 8E-	.	8ff#X 8ee 8a 8f#X	.
8e-J 8c 8E-	.	8ff#J 8ee 8a 8f#	.
!!LO:PB:g=original
=229	=229	=229	=229
*ped	*	*	*
!LO:TX:b:t=P:problem:znak pedalizacji przed nutą	!	!	!
!LO:TX:t=P:mixed beam:problem	!	!	!
8EE-L/ 8EEE-/	.	8ff#XL 8ee- 8an 8f#X	.
8e-\ 8d-\ 8B-\ 8E-\	.	8gg 8ee- 8dd- 8g	.
8e-J\ 8d-\ 8B-\ 8E-\	.	8ggJ 8ee- 8dd- 8g	.
*Xped	*	*	*
8e-L 8d- 8B- 8E-	.	8ggL 8ee- 8dd- 8g	.
*ped	*	*	*
8f 8d- 8B-	.	8aany 8dd- 8a	.
8fJ 8d- 8B-	.	8aaJ 8dd- 8a	.
=230	=230	=230	=230
8fL 8d- 8B-\	.	8aa-L 8dd- 8a-	.
*clefG2	*	*	*
8a- 8f 8d- 8B-	.	8ccc 8ff 8dd-	.
8a-J 8f 8d- 8B-	.	8cccJ 8ff 8dd-	.
*Xped	*	*	*
.	.	.	.
8a-L 8f 8d- 8B-	.	8cccL 8ff 8dd-	.
8g 8e- 8B-	.	8bb- 8ee- 8dd-	.
8gJ 8e- 8B-	.	8bb-J 8ee- 8dd-)	[
*clefF4	*	*	*
=231	=231	=231	=231
.	.	(<8qqc/L	.
*ped	*	*	*
!	!	!LO:TX:a:t=piu mosso.	!
.	.	8qqe-/	.
!	!	!LO:TX:t=P:problem:'piu mosso.' oraz oznaczenie pedalizacji na wysokości 8qqe-	!
.	.	8qqa-/	.
.	.	8qqcc/J	.
(>8AA-'< 8AAA-'<	.	[>4.ccc)	.
8r	.	.	.
*Xped	*	*	*
8e- 8A- 8E-	.	.	<
*ped	*	*	*
4.f-X 4.A- 4.F-X)	.	(>16cccLL]	[
.	.	16bb-	.
.	.	16aa-	.
.	.	16gg	.
.	.	16aa-	.
*Xped	*	*	*
.	.	16ff-XJJ	.
!!LO:LB:g=original
=232	=232	=232	=232
*^	*	*	*
*ped	*	*	*	*
!LO:N:vis=4	!	!	!	!
(>8AA-	4ryy	.	16ddnLL	.
.	.	.	16ffn	.
8r	.	.	16ee-	.
.	.	.	16cc	.
!	!LO:N:vis=4	!	!	!
4.E-	8E-	.	16a-	.
.	.	.	16fJJ	.
.	4c	.	4e-^>	.
*Xped	*	*	*	*
.	.	.	.	.
8ryy	8B-)	.	8g 8d-X)	.
*v	*v	*	*	*
=233	=233	=233	=233
.	.	(<8qqc/L	.
.	.	8qqe-/	.
.	.	8qqa-/	.
.	.	8qqcc/J	.
*ped	*	*	*
!LO:TX:b:t=P:problem:znak pedalizacji pod 8qqc	!	!	!
(>8AA-'< 8AAA-'<	.	(>[>4.ccc)	.
8r	.	.	.
*Xped	*	*	*
8a-: 8c: 8E-:	.	.	<
*ped	*	*	*
4.a-: 4.c: 4.F-X:)	.	16cccLL]	[
.	.	16bb-	.
.	.	16aa-	.
.	.	16gg	.
*Xped	*	*	*
.	.	16aa-	.
.	.	16ff-XJJ	.
=234	=234	=234	=234
*^	*	*	*
*ped	*	*	*	*
!LO:N:vis=4	!	!	!	!
8AA-'<	4ryy	.	16ddnLL	.
.	.	.	16ffn	.
8r	.	.	16ee-	.
.	.	.	16cc	.
!	!LO:N:vis=4	!	!	!
4.E-	8E-	.	16a-	.
.	.	.	16fJJ	.
.	4c	.	4e-^>	.
*Xped	*	*	*	*
8ryy	8B-	.	8g 8d-)	.
*v	*v	*	*	*
!!LO:LB:g=original
=235	=235	=235	=235
*ped	*	*	*
!LO:TX:t=P:problem:oznaczenie pedalizacji przed nutą	!	!	!
8AAA-'<L	.	(>16cLL\	.
.	.	16e-	.
8rD	.	16a-	.
.	.	16ccJ	.
(>8E-J	.	8cccJ	.
.	.	16qqddn/LL	.
.	.	16qqee-/JJ	.
4a- 4c)	.	4.ee-T>)	.
*Xped	*	*	*
.	.	.	.
8r	.	.	.
=236	=236	=236	=236
*ped	*	*	*
8AA-'<L	.	(>16ccLL	.
.	.	16ee-	.
8rD	.	16aa-	.
.	.	16cccJ	.
*	*	*8va	*
*clefG2	*	*	*
(>8e-J	.	8ccccJ	.
.	.	16qqdddn/LL	.
.	.	16qqeee-/JJ	.
4aa- 4cc)	.	4.eee-T>)	.
8r	.	.	.
=237	=237	=237	=237
4cc: 4e-: 4A-:	.	(>8ccc	.
.	.	16ffffLL	.
.	.	16eeee-	.
8r	.	16cccc	.
.	.	16aaa-JJ	.
4r	.	16fffLL	.
.	.	16eee-	.
.	.	16ccc	.
.	.	16aa-	.
*	*	*X8va	*
!	!	!LO:TX:a:t=loco	!
8r	.	16ff	.
.	.	16ee-JJ	.
*clefF4	*	*	*
!!LO:LB:g=original
=238	=238	=238	=238
2.rBB	.	16ccLL\	.
.	.	16a-	.
.	.	16f	.
.	.	16e-	.
.	.	16c	.
.	.	16A-JJ	.
.	.	16F<LL	.
.	.	16E-<	.
.	.	16C<	.
.	.	16AA-<	.
.	.	16FF<	.
.	.	16EE-<JJ)	.
=239	=239	=239	=239
4AAA-	.	4r	.
8r	.	8r	.
4.C 4.CC	.	4.cc^< 4.b- 4.en 4.c	.
=240	=240	=240	=240
4.F 4.FF	.	4.cc^< 4.a- 4.f 4.c	.
4.E- 4.EE-	.	4.ee-^< 4.dd- 4.g 4.e- 4.d-	.
=241	=241	=241	=241
2.AA-;> 2.AAA-	.	2.aa-^<;> 2.cc 2.a-	.
==	==	==	==
*-	*-	*-	*-
!!title: @{OTL}; @{OPS} @{ONM} publisher: @{PPR}
!!!RDF**kern: > = above
!!!RDF**kern: < = below
!!!RDF**dynam: > = "dim", fontstyle= "normal"
!!!RDF**dynam: < = "cres", fontstyle= "normal"
!!!RDF**kern: N = linked
!!!RDF**kern: i = editorial accidental
!!!ENC: Wojciech Jakubiak-Danek
!!!END: 2019-02-05
!!!EED: Zofia Niedbalska
!!!EST: 2019-02-14
!!!EED2: Emilia Ziętek
!!!EST2: 2020-01-07
!!!rism-genre: Ballade
!!!rism-key: A-flat major
!!!rism-opus: op.  47
!!!rism-title: Ballade in A-flat major op.  47
!!!rism-permalink: https://opac.rism.info/search?id=1001068324&View=rism
